; generated by Slic3r Prusa Edition 1.39.2+win64 on 2018-06-26 at 15:51:19

; 

; external perimeters extrusion width = 0.60mm
; perimeters extrusion width = 0.43mm
; infill extrusion width = 0.70mm
; solid infill extrusion width = 0.70mm
; top infill extrusion width = 0.43mm
; first layer extrusion width = 0.42mm

M107
M115 U3.1.0 ; tell printer latest fw version
M201 X9000 Y9000 Z500 E10000 ; sets maximum accelerations, mm/sec^2
M203 X500 Y500 Z12 E120 ; sets maximum feedrates, mm/sec
M204 S1500 T1500 ; sets acceleration (S) and retract acceleration (T)
M205 X10 Y10 Z0.2 E2.5 ; sets the jerk limits, mm/sec
M205 S0 T0 ; sets the minimum extruding and travel feed rate, mm/sec
M83  ; extruder relative mode
M104 S215 ; set extruder temp
M140 S60 ; set bed temp
M190 S60 ; wait for bed temp
M109 S215 ; wait for extruder temp
G28 W ; home all without mesh bed level
G80 ; mesh bed leveling
G1 Y-3.0 F1000.0 ; go outside print area
G92 E0.0
G1 X60.0 E9.0  F1000.0 ; intro line
G1 X100.0 E12.5  F1000.0 ; intro line
G92 E0.0
M900 K30; Filament gcode
G21 ; set units to millimeters
G90 ; use absolute coordinates
M83 ; use relative distances for extrusion
;BEFORE_LAYER_CHANGE
;0.2


G1 E-0.80000 F2100.00000
G1 Z0.600 F7200.000
;AFTER_LAYER_CHANGE
;0.2
G1 X72.163 Y15.624
G1 Z0.200
G1 E0.80000 F2100.00000
M204 S1000
G1 F1800
G1 X72.530 Y15.277 E0.01585
G1 X72.963 Y15.016 E0.01585
G1 X73.441 Y14.852 E0.01585
G1 X73.947 Y14.792 E0.01597
G1 X173.973 Y14.792 E3.13622
G1 X174.616 Y14.882 E0.02036
G1 X175.207 Y15.140 E0.02024
G1 X175.710 Y15.551 E0.02036
G1 X176.083 Y16.083 E0.02036
G1 X192.562 Y51.038 E1.21168
G1 X230.870 Y172.067 E3.98031
G1 X230.979 Y172.768 E0.02225
G1 X230.979 Y192.830 E0.62903
G1 X230.824 Y193.626 E0.02543
G1 X230.408 Y194.327 E0.02555
G1 X230.037 Y194.676 E0.01597
G1 X229.600 Y194.938 E0.01597
G1 X229.117 Y195.101 E0.01597
G1 X228.607 Y195.157 E0.01609
G1 X21.394 Y195.208 E6.49702
G1 X20.574 Y195.060 E0.02614
G1 X19.852 Y194.636 E0.02626
G1 X19.514 Y194.280 E0.01538
G1 X19.255 Y193.859 E0.01550
G1 X19.088 Y193.394 E0.01550
G1 X19.022 Y192.908 E0.01538
G1 X19.021 Y172.819 E0.62987
G1 X19.116 Y172.165 E0.02071
G1 X57.421 Y51.138 E3.98026
G1 X71.774 Y16.258 E1.18262
G1 X72.131 Y15.675 E0.02143
G1 F5760
G1 X72.530 Y15.277 E-0.19527
G1 X72.963 Y15.016 E-0.17513
G1 X73.441 Y14.852 E-0.17513
G1 X73.947 Y14.792 E-0.17644
G1 X74.057 Y14.792 E-0.03803
G1 E-0.04000 F2100.00000
G1 Z0.800 F7200.000
G1 X177.458 Y159.374
G1 Z0.200
G1 E0.80000 F2100.00000
G1 F1800
G1 X177.832 Y159.181 E0.01320
G1 X178.220 Y159.069 E0.01268
G1 X178.594 Y159.035 E0.01177
G1 X178.983 Y159.068 E0.01224
G1 X179.373 Y159.181 E0.01272
G1 X179.746 Y159.374 E0.01320
G1 X180.080 Y159.645 E0.01348
G1 X180.351 Y159.979 E0.01348
G1 X180.545 Y160.353 E0.01320
G1 X180.657 Y160.741 E0.01268
G1 X180.692 Y161.123 E0.01202
G1 X180.657 Y161.505 E0.01202
G1 X180.545 Y161.894 E0.01268
G1 X180.351 Y162.268 E0.01320
G1 X180.080 Y162.601 E0.01348
G1 X179.746 Y162.872 E0.01348
G1 X179.373 Y163.066 E0.01320
G1 X178.984 Y163.178 E0.01268
G1 X178.602 Y163.213 E0.01202
G1 X178.220 Y163.178 E0.01202
G1 X177.832 Y163.066 E0.01268
G1 X177.458 Y162.872 E0.01320
G1 X177.124 Y162.601 E0.01348
G1 X176.853 Y162.268 E0.01348
G1 X176.659 Y161.894 E0.01320
G1 X176.548 Y161.505 E0.01268
G1 X176.513 Y161.123 E0.01202
G1 X176.548 Y160.741 E0.01202
G1 X176.659 Y160.353 E0.01268
G1 X176.853 Y159.979 E0.01320
G1 X177.124 Y159.645 E0.01348
G1 X177.411 Y159.412 E0.01160
G1 X177.649 Y159.705 F7200.000
G1 F1800
G1 X177.972 Y159.533 E0.01147
G1 X178.290 Y159.441 E0.01038
G1 X178.595 Y159.413 E0.00959
G1 X178.914 Y159.441 E0.01003
G1 X179.232 Y159.533 E0.01040
G1 X179.539 Y159.691 E0.01082
G1 X179.812 Y159.913 E0.01105
G1 X180.034 Y160.187 E0.01105
G1 X180.193 Y160.493 E0.01082
G1 X180.284 Y160.811 E0.01038
G1 X180.313 Y161.123 E0.00982
G1 X180.284 Y161.435 E0.00982
G1 X180.193 Y161.754 E0.01038
G1 X180.034 Y162.060 E0.01081
G1 X179.812 Y162.333 E0.01105
G1 X179.539 Y162.555 E0.01105
G1 X179.232 Y162.714 E0.01082
G1 X178.914 Y162.806 E0.01038
G1 X178.602 Y162.834 E0.00982
G1 X178.290 Y162.806 E0.00982
G1 X177.972 Y162.714 E0.01038
G1 X177.666 Y162.555 E0.01082
G1 X177.392 Y162.333 E0.01105
G1 X177.170 Y162.060 E0.01105
G1 X177.011 Y161.754 E0.01081
G1 X176.920 Y161.435 E0.01038
G1 X176.891 Y161.123 E0.00982
G1 X176.920 Y160.811 E0.00982
G1 X177.011 Y160.493 E0.01038
G1 X177.170 Y160.187 E0.01082
G1 X177.392 Y159.913 E0.01105
G1 X177.602 Y159.743 E0.00850
G1 X177.625 Y159.340 F7200.000
G1 F5760
G1 X177.972 Y159.533 E-0.14717
G1 X178.290 Y159.441 E-0.11471
G1 X178.595 Y159.413 E-0.10595
G1 X178.914 Y159.441 E-0.11082
G1 X179.232 Y159.533 E-0.11488
G1 X179.539 Y159.691 E-0.11947
G1 X179.644 Y159.777 E-0.04700
G1 E-0.04000 F2100.00000
G1 Z0.800 F7200.000
G1 X178.602 Y60.213
G1 Z0.200
G1 E0.80000 F2100.00000
G1 F1800
G1 X178.220 Y60.178 E0.01202
G1 X177.832 Y60.066 E0.01268
G1 X177.458 Y59.872 E0.01320
G1 X177.124 Y59.601 E0.01348
G1 X176.853 Y59.268 E0.01348
G1 X176.659 Y58.894 E0.01320
G1 X176.548 Y58.505 E0.01268
G1 X176.513 Y58.123 E0.01202
G1 X176.548 Y57.741 E0.01202
G1 X176.659 Y57.353 E0.01268
G1 X176.853 Y56.979 E0.01320
G1 X177.124 Y56.645 E0.01348
G1 X177.458 Y56.374 E0.01348
G1 X177.833 Y56.180 E0.01325
G1 X178.231 Y56.068 E0.01296
G1 X178.602 Y56.034 E0.01168
G1 X178.984 Y56.069 E0.01202
G1 X179.373 Y56.181 E0.01268
G1 X179.746 Y56.374 E0.01320
G1 X180.080 Y56.645 E0.01348
G1 X180.351 Y56.979 E0.01348
G1 X180.545 Y57.353 E0.01320
G1 X180.657 Y57.741 E0.01268
G1 X180.692 Y58.123 E0.01202
G1 X180.657 Y58.505 E0.01202
G1 X180.545 Y58.894 E0.01268
G1 X180.351 Y59.268 E0.01320
G1 X180.080 Y59.601 E0.01348
G1 X179.746 Y59.872 E0.01348
G1 X179.373 Y60.066 E0.01320
G1 X178.984 Y60.178 E0.01268
G1 X178.662 Y60.207 E0.01014
G1 X178.627 Y59.832 F7200.000
G1 F1800
G1 X178.290 Y59.806 E0.01061
G1 X177.972 Y59.714 E0.01038
G1 X177.666 Y59.555 E0.01081
G1 X177.392 Y59.333 E0.01105
G1 X177.170 Y59.060 E0.01105
G1 X177.011 Y58.754 E0.01082
G1 X176.920 Y58.435 E0.01038
G1 X176.891 Y58.123 E0.00982
G1 X176.920 Y57.811 E0.00982
G1 X177.011 Y57.493 E0.01038
G1 X177.170 Y57.187 E0.01082
G1 X177.392 Y56.913 E0.01105
G1 X177.666 Y56.691 E0.01105
G1 X177.972 Y56.532 E0.01083
G1 X178.300 Y56.440 E0.01067
G1 X178.602 Y56.412 E0.00952
G1 X178.914 Y56.441 E0.00982
G1 X179.232 Y56.533 E0.01038
G1 X179.539 Y56.691 E0.01082
G1 X179.812 Y56.913 E0.01105
G1 X180.034 Y57.187 E0.01105
G1 X180.193 Y57.493 E0.01082
G1 X180.284 Y57.811 E0.01038
G1 X180.313 Y58.123 E0.00982
G1 X180.284 Y58.435 E0.00982
G1 X180.193 Y58.754 E0.01038
G1 X180.034 Y59.060 E0.01082
G1 X179.812 Y59.333 E0.01105
G1 X179.539 Y59.555 E0.01105
G1 X179.232 Y59.714 E0.01081
G1 X178.914 Y59.806 E0.01038
G1 X178.687 Y59.826 E0.00714
G1 X178.462 Y60.127 F7200.000
G1 F5760
G1 X178.290 Y59.806 E-0.13769
G1 X177.972 Y59.714 E-0.11472
G1 X177.666 Y59.555 E-0.11947
G1 X177.392 Y59.333 E-0.12202
G1 X177.170 Y59.060 E-0.12202
G1 X177.011 Y58.754 E-0.11947
G1 X176.992 Y58.685 E-0.02462
G1 E-0.04000 F2100.00000
G1 Z0.800 F7200.000
G1 X189.115 Y151.710
G1 Z0.200
G1 E0.80000 F2100.00000
G1 F1800
G1 X208.057 Y151.710 E0.59391
G1 X208.101 Y152.010 E0.00949
G1 X208.210 Y152.450 E0.01422
G1 X208.364 Y152.879 E0.01429
G1 X208.559 Y153.291 E0.01428
G1 X208.792 Y153.679 E0.01421
G1 X209.060 Y154.040 E0.01408
G1 X209.349 Y154.357 E0.01344
G1 X228.015 Y173.023 E0.82771
G1 X228.015 Y192.193 E0.60105
G1 X208.845 Y192.193 E0.60105
G1 X192.179 Y175.527 E0.73902
G1 X191.862 Y175.239 E0.01344
G1 X191.501 Y174.970 E0.01408
G1 X191.113 Y174.737 E0.01422
G1 X190.701 Y174.542 E0.01429
G1 X190.272 Y174.388 E0.01429
G1 X189.832 Y174.279 E0.01421
G1 X189.388 Y174.214 E0.01407
G1 X188.959 Y174.193 E0.01344
G1 X168.230 Y174.193 E0.64995
G1 X167.386 Y174.276 E0.02660
G1 X166.932 Y174.388 E0.01466
G1 X166.503 Y174.542 E0.01429
G1 X166.091 Y174.737 E0.01429
G1 X165.703 Y174.970 E0.01421
G1 X165.343 Y175.239 E0.01408
G1 X165.025 Y175.527 E0.01344
G1 X148.359 Y192.193 E0.73902
G1 X129.189 Y192.193 E0.60105
G1 X129.189 Y173.023 E0.60105
G1 X147.856 Y154.357 E0.82770
G1 X148.144 Y154.040 E0.01344
G1 X148.412 Y153.679 E0.01408
G1 X148.646 Y153.291 E0.01422
G1 X148.841 Y152.879 E0.01429
G1 X148.994 Y152.450 E0.01429
G1 X149.103 Y152.010 E0.01421
G1 X149.147 Y151.710 E0.00949
G1 X168.089 Y151.710 E0.59391
G1 X168.089 Y51.710 E3.13543
G1 X189.115 Y51.710 E0.65925
G1 X189.115 Y151.650 E3.13355
G1 X189.492 Y151.333 F7200.000
G1 F1800
G1 X208.402 Y151.333 E0.59291
G1 X208.411 Y151.529 E0.00615
G1 X208.471 Y151.937 E0.01292
G1 X208.572 Y152.341 E0.01305
G1 X208.712 Y152.735 E0.01312
G1 X208.891 Y153.112 E0.01311
G1 X209.106 Y153.469 E0.01305
G1 X209.352 Y153.800 E0.01292
G1 X209.622 Y154.097 E0.01258
G1 X228.392 Y172.867 E0.83232
G1 X228.392 Y192.570 E0.61777
G1 X208.689 Y192.570 E0.61777
G1 X191.919 Y175.800 E0.74363
G1 X191.622 Y175.530 E0.01258
G1 X191.291 Y175.284 E0.01292
G1 X190.934 Y175.070 E0.01305
G1 X190.556 Y174.890 E0.01311
G1 X190.163 Y174.750 E0.01311
G1 X189.759 Y174.649 E0.01305
G1 X189.351 Y174.590 E0.01292
G1 X188.950 Y174.570 E0.01258
G1 X168.249 Y174.570 E0.64908
G1 X167.450 Y174.648 E0.02515
G1 X167.042 Y174.750 E0.01321
G1 X166.648 Y174.890 E0.01311
G1 X166.270 Y175.070 E0.01311
G1 X165.913 Y175.284 E0.01305
G1 X165.583 Y175.530 E0.01292
G1 X165.286 Y175.800 E0.01258
G1 X148.515 Y192.570 E0.74363
G1 X128.812 Y192.570 E0.61777
G1 X128.812 Y172.867 E0.61777
G1 X147.583 Y154.097 E0.83232
G1 X147.852 Y153.800 E0.01258
G1 X148.098 Y153.469 E0.01292
G1 X148.313 Y153.112 E0.01305
G1 X148.492 Y152.735 E0.01311
G1 X148.633 Y152.341 E0.01311
G1 X148.733 Y151.937 E0.01305
G1 X148.793 Y151.529 E0.01292
G1 X148.802 Y151.333 E0.00615
G1 X167.712 Y151.333 E0.59291
G1 X167.712 Y51.333 E3.13543
G1 X189.492 Y51.333 E0.68290
G1 X189.492 Y151.273 E3.13355
G1 X189.521 Y151.732 F7200.000
G1 F5760
G1 X191.686 Y151.280 E-0.76000
G1 E-0.04000 F2100.00000
G1 Z0.800 F7200.000
G1 X179.122 Y158.991
G1 Z0.200
G1 E0.80000 F2100.00000
G1 F1800
G1 X168.372 Y148.241 E0.47679
G1 X168.372 Y148.774 E0.01673
G1 X178.369 Y158.771 E0.44340
G1 X178.168 Y158.790 E0.00633
G1 X177.924 Y158.860 E0.00796
G1 X168.372 Y149.308 E0.42367
G1 X168.372 Y149.841 E0.01673
G1 X177.543 Y159.012 E0.40675
G1 X177.302 Y159.136 E0.00849
G1 X177.209 Y159.212 E0.00375
G1 X168.372 Y150.375 E0.39196
G1 X168.372 Y150.908 E0.01673
G1 X176.916 Y159.453 E0.37898
G1 X176.677 Y159.747 E0.01189
G1 X168.372 Y151.442 E0.36837
G1 X168.372 Y151.975 E0.01673
G1 X176.480 Y160.083 E0.35964
G1 X176.395 Y160.248 E0.00580
G1 X176.332 Y160.468 E0.00720
G1 X167.857 Y151.993 E0.37590
G1 X167.323 Y151.993 E0.01673
G1 X176.248 Y160.917 E0.39582
G1 X176.229 Y161.123 E0.00649
G1 X176.260 Y161.463 E0.01070
G1 X166.790 Y151.993 E0.42002
G1 X166.257 Y151.993 E0.01673
G1 X188.174 Y173.910 E0.97211
G1 X188.707 Y173.910 E0.01673
G1 X178.263 Y163.466 E0.46326
G1 X178.602 Y163.497 E0.01070
G1 X178.808 Y163.478 E0.00649
G1 X189.255 Y173.924 E0.46333
G1 X189.861 Y173.997 E0.01916
G1 X179.257 Y163.394 E0.47032
G1 X179.478 Y163.330 E0.00720
G1 X179.642 Y163.245 E0.00580
G1 X190.915 Y174.518 E0.49999
G1 F5760
G1 X189.363 Y172.966 E-0.76000
G1 E-0.04000 F2100.00000
G1 Z0.800 F7200.000
G1 X187.810 Y174.080
G1 Z0.200
G1 E0.80000 F2100.00000
G1 F1800
G1 X165.723 Y151.993 E0.97963
G1 X165.190 Y151.993 E0.01673
G1 X187.107 Y173.910 E0.97211
G1 X186.573 Y173.910 E0.01673
G1 X164.656 Y151.993 E0.97211
G1 X164.123 Y151.993 E0.01673
G1 X186.040 Y173.910 E0.97211
G1 X185.507 Y173.910 E0.01673
G1 X163.589 Y151.993 E0.97211
G1 X163.056 Y151.993 E0.01673
G1 X184.973 Y173.910 E0.97211
G1 X184.440 Y173.910 E0.01673
G1 X162.523 Y151.993 E0.97211
G1 X161.989 Y151.993 E0.01673
G1 X183.906 Y173.910 E0.97211
G1 X183.373 Y173.910 E0.01673
G1 X161.456 Y151.993 E0.97211
G1 X160.922 Y151.993 E0.01673
G1 X182.840 Y173.910 E0.97211
G1 X182.306 Y173.910 E0.01673
G1 X160.389 Y151.993 E0.97211
G1 X159.856 Y151.993 E0.01673
G1 X181.773 Y173.910 E0.97211
G1 X181.239 Y173.910 E0.01673
G1 X159.322 Y151.993 E0.97211
G1 X158.789 Y151.993 E0.01673
G1 X180.706 Y173.910 E0.97211
G1 X180.172 Y173.910 E0.01673
G1 X158.255 Y151.993 E0.97211
G1 X157.722 Y151.993 E0.01673
G1 X179.639 Y173.910 E0.97211
G1 X179.106 Y173.910 E0.01673
G1 X157.188 Y151.993 E0.97211
G1 X156.655 Y151.993 E0.01673
G1 X178.572 Y173.910 E0.97211
G1 X178.039 Y173.910 E0.01673
G1 X156.122 Y151.993 E0.97211
G1 X155.588 Y151.993 E0.01673
G1 X177.505 Y173.910 E0.97211
G1 X176.972 Y173.910 E0.01673
G1 X155.055 Y151.993 E0.97211
G1 X154.521 Y151.993 E0.01673
G1 X176.439 Y173.910 E0.97211
G1 X175.905 Y173.910 E0.01673
G1 X153.988 Y151.993 E0.97211
G1 X153.455 Y151.993 E0.01673
G1 X175.372 Y173.910 E0.97211
G1 X174.838 Y173.910 E0.01673
G1 X152.921 Y151.993 E0.97211
G1 X152.388 Y151.993 E0.01673
G1 X174.305 Y173.910 E0.97211
G1 X173.771 Y173.910 E0.01673
G1 X151.854 Y151.993 E0.97211
G1 X151.321 Y151.993 E0.01673
G1 X173.238 Y173.910 E0.97211
G1 X172.705 Y173.910 E0.01673
G1 X150.787 Y151.993 E0.97211
G1 X150.254 Y151.993 E0.01673
G1 X172.171 Y173.910 E0.97211
G1 X171.638 Y173.910 E0.01673
G1 X149.721 Y151.993 E0.97211
G1 X149.392 Y151.993 E0.01032
G1 X149.357 Y152.163 E0.00543
G1 X171.104 Y173.910 E0.96459
G1 X170.571 Y173.910 E0.01673
G1 X149.246 Y152.585 E0.94585
G1 X149.106 Y152.978 E0.01309
G1 X170.038 Y173.910 E0.92841
G1 X169.504 Y173.910 E0.01673
G1 X148.935 Y153.341 E0.91233
G1 X148.741 Y153.681 E0.01227
G1 X168.971 Y173.910 E0.89726
G1 X168.437 Y173.910 E0.01673
G1 X148.526 Y153.999 E0.88313
G1 X148.291 Y154.298 E0.01191
G1 X167.932 Y173.938 E0.87113
G1 X167.446 Y173.986 E0.01531
G1 X148.036 Y154.576 E0.86088
G1 X147.770 Y154.843 E0.01183
G1 X167.006 Y174.079 E0.85319
G1 X166.600 Y174.207 E0.01333
G1 X147.503 Y155.110 E0.84703
G1 X147.236 Y155.376 E0.01183
G1 X166.222 Y174.362 E0.84209
G1 X165.868 Y174.541 E0.01245
G1 X146.969 Y155.643 E0.83821
G1 X146.703 Y155.910 E0.01183
G1 X165.536 Y174.743 E0.83531
G1 X165.230 Y174.970 E0.01196
G1 X146.436 Y156.176 E0.83358
G1 X146.169 Y156.443 E0.01183
G1 X164.944 Y175.218 E0.83275
G1 X164.672 Y175.480 E0.01183
G1 X145.903 Y156.710 E0.83252
G1 X145.636 Y156.977 E0.01183
G1 X164.406 Y175.746 E0.83252
G1 X164.139 Y176.013 E0.01183
G1 X145.369 Y157.243 E0.83252
G1 X145.102 Y157.510 E0.01183
G1 X163.872 Y176.280 E0.83252
G1 X163.606 Y176.547 E0.01183
G1 X144.836 Y157.777 E0.83252
G1 X144.569 Y158.043 E0.01183
G1 X163.339 Y176.813 E0.83252
G1 X163.072 Y177.080 E0.01183
G1 X144.302 Y158.310 E0.83252
G1 X144.036 Y158.577 E0.01183
G1 X162.805 Y177.347 E0.83252
G1 X162.539 Y177.613 E0.01183
G1 X143.769 Y158.844 E0.83252
G1 X143.502 Y159.110 E0.01183
G1 X162.272 Y177.880 E0.83252
G1 X162.005 Y178.147 E0.01183
G1 X143.236 Y159.377 E0.83252
G1 X142.969 Y159.644 E0.01183
G1 X161.739 Y178.414 E0.83252
G1 X161.472 Y178.680 E0.01183
G1 X142.702 Y159.910 E0.83252
G1 X142.435 Y160.177 E0.01183
G1 X161.205 Y178.947 E0.83252
G1 X160.939 Y179.214 E0.01183
G1 X142.169 Y160.444 E0.83252
G1 X141.902 Y160.710 E0.01183
G1 X160.672 Y179.480 E0.83252
G1 X160.405 Y179.747 E0.01183
G1 X141.635 Y160.977 E0.83252
G1 X141.369 Y161.244 E0.01183
G1 X160.138 Y180.014 E0.83252
G1 X159.872 Y180.280 E0.01183
G1 X141.102 Y161.511 E0.83252
G1 X140.835 Y161.777 E0.01183
G1 X159.605 Y180.547 E0.83252
G1 X159.338 Y180.814 E0.01183
G1 X140.568 Y162.044 E0.83252
G1 X140.302 Y162.311 E0.01183
G1 X159.072 Y181.081 E0.83252
G1 X158.805 Y181.347 E0.01183
G1 X140.035 Y162.577 E0.83252
G1 X139.768 Y162.844 E0.01183
G1 X158.538 Y181.614 E0.83252
G1 X158.271 Y181.881 E0.01183
G1 X139.502 Y163.111 E0.83251
G1 X139.235 Y163.378 E0.01183
G1 X158.005 Y182.147 E0.83251
G1 X157.738 Y182.414 E0.01183
G1 X138.968 Y163.644 E0.83251
G1 X138.701 Y163.911 E0.01183
G1 X157.471 Y182.681 E0.83251
G1 X157.205 Y182.948 E0.01183
G1 X138.435 Y164.178 E0.83251
G1 X138.168 Y164.444 E0.01183
G1 X156.938 Y183.214 E0.83251
G1 X156.671 Y183.481 E0.01183
G1 X137.901 Y164.711 E0.83251
G1 X137.635 Y164.978 E0.01183
G1 X156.404 Y183.748 E0.83251
G1 X156.138 Y184.014 E0.01183
G1 X137.368 Y165.245 E0.83251
G1 X137.101 Y165.511 E0.01183
G1 X155.871 Y184.281 E0.83251
