; generated by Slic3r Prusa Edition 1.39.2+win64 on 2018-06-26 at 15:52:48

; 

; external perimeters extrusion width = 0.60mm
; perimeters extrusion width = 0.43mm
; infill extrusion width = 0.70mm
; solid infill extrusion width = 0.70mm
; top infill extrusion width = 0.43mm
; first layer extrusion width = 0.42mm

M107
M115 U3.1.0 ; tell printer latest fw version
M201 X9000 Y9000 Z500 E10000 ; sets maximum accelerations, mm/sec^2
M203 X500 Y500 Z12 E120 ; sets maximum feedrates, mm/sec
M204 S1500 T1500 ; sets acceleration (S) and retract acceleration (T)
M205 X10 Y10 Z0.2 E2.5 ; sets the jerk limits, mm/sec
M205 S0 T0 ; sets the minimum extruding and travel feed rate, mm/sec
M83  ; extruder relative mode
M104 S215 ; set extruder temp
M140 S60 ; set bed temp
M190 S60 ; wait for bed temp
M109 S215 ; wait for extruder temp
G28 W ; home all without mesh bed level
G80 ; mesh bed leveling
G1 Y-3.0 F1000.0 ; go outside print area
G92 E0.0
G1 X60.0 E9.0  F1000.0 ; intro line
G1 X100.0 E12.5  F1000.0 ; intro line
G92 E0.0
M900 K30; Filament gcode
G21 ; set units to millimeters
G90 ; use absolute coordinates
M83 ; use relative distances for extrusion
;BEFORE_LAYER_CHANGE
;0.2


G1 E-0.80000 F2100.00000
G1 Z0.600 F7200.000
;AFTER_LAYER_CHANGE
;0.2
G1 X20.830 Y34.446
G1 Z0.200
G1 E0.80000 F2100.00000
M204 S1000
G1 F1800
G1 X21.392 Y34.217 E0.01906
G1 X21.995 Y34.138 E0.01906
G1 X228.004 Y34.138 E6.45926
G1 X228.899 Y34.314 E0.02860
G1 X229.664 Y34.817 E0.02872
G1 X230.182 Y35.573 E0.02872
G1 X230.377 Y36.468 E0.02872
G1 X230.356 Y152.144 E3.62693
G1 X230.156 Y152.829 E0.02237
G1 X229.763 Y153.423 E0.02237
G1 X209.741 Y175.104 E0.92529
G1 X209.173 Y175.553 E0.02272
G1 X208.614 Y175.782 E0.01894
G1 X208.011 Y175.862 E0.01906
G1 X147.977 Y175.862 E1.88233
G1 X43.651 Y173.813 E3.27171
G1 X42.883 Y173.575 E0.02520
G1 X42.238 Y173.095 E0.02520
G1 X22.210 Y151.409 E0.92558
G1 X21.890 Y150.969 E0.01704
G1 X21.676 Y150.461 E0.01728
G1 X21.585 Y149.914 E0.01740
G1 X19.623 Y104.194 E1.43486
G1 X19.623 Y36.473 E2.12334
G1 X19.714 Y35.864 E0.01929
G1 X19.957 Y35.299 E0.01929
G1 X20.338 Y34.815 E0.01929
G1 X20.782 Y34.482 E0.01741
G1 F5760
G1 X21.392 Y34.217 E-0.23066
G1 X21.995 Y34.138 E-0.21051
G1 X22.916 Y34.138 E-0.31884
G1 E-0.04000 F2100.00000
G1 Z0.800 F7200.000
G1 X22.587 Y84.759
G1 Z0.200
G1 E0.80000 F2100.00000
G1 F1800
G1 X41.757 Y84.759 E0.60105
G1 X57.687 Y100.688 E0.70635
G1 X57.687 Y125.241 E0.76984
G1 X42.545 Y125.241 E0.47475
G1 X42.501 Y124.942 E0.00949
G1 X42.392 Y124.502 E0.01421
G1 X42.239 Y124.073 E0.01429
G1 X42.043 Y123.661 E0.01429
G1 X41.810 Y123.272 E0.01422
G1 X41.542 Y122.912 E0.01408
G1 X41.253 Y122.595 E0.01344
G1 X22.587 Y103.928 E0.82770
G1 X22.587 Y84.819 E0.59917
G1 X22.210 Y84.382 F7200.000
G1 F1800
G1 X41.913 Y84.382 E0.61777
G1 X58.064 Y100.532 E0.71615
G1 X58.064 Y125.618 E0.78656
G1 X42.200 Y125.618 E0.49739
G1 X42.191 Y125.423 E0.00615
G1 X42.131 Y125.015 E0.01292
G1 X42.030 Y124.611 E0.01305
G1 X41.890 Y124.217 E0.01311
G1 X41.711 Y123.839 E0.01311
G1 X41.496 Y123.483 E0.01305
G1 X41.250 Y123.152 E0.01292
G1 X40.980 Y122.855 E0.01258
G1 X22.210 Y104.085 E0.83232
G1 X22.210 Y84.442 E0.61589
G1 X22.583 Y84.527 F7200.000
G1 F5760
G1 X24.404 Y84.435 E-0.76000
G1 E-0.04000 F2100.00000
G1 Z0.800 F7200.000
G1 X57.573 Y100.978
G1 Z0.200
G1 E0.80000 F2100.00000
G1 F1800
G1 X41.636 Y85.041 E0.71496
G1 X41.097 Y85.041 E0.01711
G1 X57.404 Y101.348 E0.73155
G1 X57.404 Y101.888 E0.01711
G1 X40.557 Y85.041 E0.75575
G1 X40.018 Y85.041 E0.01711
G1 X57.404 Y102.427 E0.77996
G1 X57.404 Y102.967 E0.01711
G1 X39.478 Y85.041 E0.80416
G1 X38.939 Y85.041 E0.01711
G1 X57.404 Y103.506 E0.82837
G1 X57.404 Y104.046 E0.01711
G1 X38.399 Y85.041 E0.85257
G1 X37.860 Y85.041 E0.01711
G1 X57.404 Y104.585 E0.87677
G1 X57.404 Y105.125 E0.01711
G1 X37.320 Y85.041 E0.90098
G1 X36.781 Y85.041 E0.01711
G1 X57.404 Y105.664 E0.92518
G1 X57.404 Y106.204 E0.01711
G1 X36.241 Y85.041 E0.94939
G1 X35.702 Y85.041 E0.01711
G1 X57.404 Y106.743 E0.97359
G1 X57.404 Y107.283 E0.01711
G1 X35.162 Y85.041 E0.99779
G1 X34.623 Y85.041 E0.01711
G1 X57.404 Y107.823 E1.02200
G1 X57.404 Y108.362 E0.01711
G1 X34.083 Y85.041 E1.04620
G1 X33.544 Y85.041 E0.01711
G1 X57.404 Y108.902 E1.07041
G1 X57.404 Y109.441 E0.01711
G1 X33.004 Y85.041 E1.09461
G1 X32.465 Y85.041 E0.01711
G1 X57.404 Y109.981 E1.11881
G1 X57.404 Y110.520 E0.01711
G1 X31.925 Y85.041 E1.14302
G1 X31.386 Y85.041 E0.01711
G1 X57.404 Y111.060 E1.16722
G1 X57.404 Y111.599 E0.01711
G1 X30.846 Y85.041 E1.19143
G1 X30.306 Y85.041 E0.01711
G1 X57.404 Y112.139 E1.21563
G1 X57.404 Y112.678 E0.01711
G1 X29.767 Y85.041 E1.23983
G1 X29.227 Y85.041 E0.01711
G1 X57.404 Y113.218 E1.26404
G1 X57.404 Y113.757 E0.01711
G1 X28.688 Y85.041 E1.28824
G1 X28.148 Y85.041 E0.01711
G1 X57.404 Y114.297 E1.31245
G1 X57.404 Y114.836 E0.01711
G1 X27.609 Y85.041 E1.33665
G1 X27.069 Y85.041 E0.01711
G1 X57.404 Y115.376 E1.36085
G1 X57.404 Y115.915 E0.01711
G1 X26.530 Y85.041 E1.38506
G1 X25.990 Y85.041 E0.01711
G1 X57.404 Y116.455 E1.40926
G1 X57.404 Y116.994 E0.01711
G1 X25.451 Y85.041 E1.43347
G1 X24.911 Y85.041 E0.01711
G1 X57.404 Y117.534 E1.45767
G1 X57.404 Y118.073 E0.01711
G1 X24.372 Y85.041 E1.48187
G1 X23.832 Y85.041 E0.01711
G1 X57.404 Y118.613 E1.50608
G1 X57.404 Y119.153 E0.01711
G1 X23.293 Y85.041 E1.53028
G1 X22.870 Y85.041 E0.01341
G1 X22.870 Y85.158 E0.00370
G1 X57.404 Y119.692 E1.54925
G1 X57.404 Y120.232 E0.01711
G1 X22.870 Y85.698 E1.54925
G1 X22.870 Y86.237 E0.01711
G1 X57.404 Y120.771 E1.54925
G1 X57.404 Y121.311 E0.01711
G1 X22.870 Y86.777 E1.54925
G1 X22.870 Y87.316 E0.01711
G1 X57.404 Y121.850 E1.54925
G1 X57.404 Y122.390 E0.01711
G1 X22.870 Y87.856 E1.54925
G1 X22.870 Y88.395 E0.01711
G1 X57.404 Y122.929 E1.54925
G1 X57.404 Y123.469 E0.01711
G1 X22.870 Y88.935 E1.54925
G1 X22.870 Y89.474 E0.01711
G1 X57.404 Y124.008 E1.54925
G1 X57.404 Y124.548 E0.01711
G1 X22.870 Y90.014 E1.54925
G1 X22.870 Y90.553 E0.01711
G1 X57.275 Y124.959 E1.54347
G1 X56.735 Y124.959 E0.01711
G1 X22.870 Y91.093 E1.51927
G1 X22.870 Y91.632 E0.01711
G1 X56.196 Y124.959 E1.49506
G1 X55.656 Y124.959 E0.01711
G1 X22.870 Y92.172 E1.47086
G1 X22.870 Y92.712 E0.01711
G1 X55.117 Y124.959 E1.44666
G1 X54.577 Y124.959 E0.01711
G1 X22.870 Y93.251 E1.42245
G1 X22.870 Y93.791 E0.01711
G1 X54.038 Y124.959 E1.39825
G1 X53.498 Y124.959 E0.01711
G1 X22.870 Y94.330 E1.37404
G1 X22.870 Y94.870 E0.01711
G1 X52.959 Y124.959 E1.34984
G1 X52.419 Y124.959 E0.01711
G1 X22.870 Y95.409 E1.32564
G1 X22.870 Y95.949 E0.01711
G1 X51.880 Y124.959 E1.30143
G1 X51.340 Y124.959 E0.01711
G1 X22.870 Y96.488 E1.27723
G1 X22.870 Y97.028 E0.01711
G1 X50.801 Y124.959 E1.25302
G1 X50.261 Y124.959 E0.01711
G1 X22.870 Y97.567 E1.22882
G1 X22.870 Y98.107 E0.01711
G1 X49.722 Y124.959 E1.20462
G1 X49.182 Y124.959 E0.01711
G1 X22.870 Y98.646 E1.18041
G1 X22.870 Y99.186 E0.01711
G1 X48.643 Y124.959 E1.15621
G1 X48.103 Y124.959 E0.01711
G1 X22.870 Y99.725 E1.13200
G1 X22.870 Y100.265 E0.01711
G1 X47.564 Y124.959 E1.10780
G1 X47.024 Y124.959 E0.01711
G1 X22.870 Y100.804 E1.08360
G1 X22.870 Y101.344 E0.01711
G1 X46.484 Y124.959 E1.05939
G1 X45.945 Y124.959 E0.01711
G1 X22.870 Y101.883 E1.03519
G1 X22.870 Y102.423 E0.01711
G1 X45.405 Y124.959 E1.01098
G1 X44.866 Y124.959 E0.01711
G1 X22.870 Y102.963 E0.98678
G1 X22.870 Y103.502 E0.01711
G1 X44.326 Y124.959 E0.96258
G1 X43.787 Y124.959 E0.01711
G1 X42.199 Y123.370 E0.07124
G1 X42.293 Y123.527 E0.00580
G1 X42.500 Y123.964 E0.01535
G1 X42.637 Y124.349 E0.01294
G1 X43.417 Y125.128 E0.03498
G1 F5760
G1 X42.637 Y124.349 E-0.38192
G1 X42.500 Y123.964 E-0.14126
G1 X42.293 Y123.527 E-0.16755
G1 X42.199 Y123.370 E-0.06336
G1 X42.211 Y123.383 E-0.00590
G1 E-0.04000 F2100.00000
G1 Z0.800 F7200.000
G1 X86.313 Y125.128
G1 Z0.200
G1 E0.80000 F2100.00000
G1 F1800
G1 X86.313 Y100.688 E0.76629
G1 X102.243 Y84.759 E0.70635
G1 X121.413 Y84.759 E0.60105
G1 X121.413 Y103.928 E0.60105
G1 X102.746 Y122.595 E0.82771
G1 X102.458 Y122.912 E0.01344
G1 X102.190 Y123.272 E0.01408
G1 X101.957 Y123.661 E0.01421
G1 X101.761 Y124.073 E0.01428
G1 X101.608 Y124.502 E0.01429
G1 X101.499 Y124.942 E0.01422
G1 X101.455 Y125.241 E0.00949
G1 X86.313 Y125.241 E0.47475
G1 X86.313 Y125.188 E0.00167
G1 X85.936 Y125.618 F7200.000
G1 F1800
G1 X85.936 Y100.532 E0.78656
G1 X102.087 Y84.382 E0.71615
G1 X121.790 Y84.382 E0.61777
G1 X121.790 Y104.085 E0.61777
G1 X103.019 Y122.855 E0.83232
G1 X102.750 Y123.152 E0.01258
G1 X102.504 Y123.483 E0.01292
G1 X102.289 Y123.839 E0.01305
G1 X102.110 Y124.217 E0.01311
G1 X101.970 Y124.611 E0.01312
G1 X101.869 Y125.015 E0.01305
G1 X101.809 Y125.423 E0.01292
G1 X101.800 Y125.618 E0.00615
G1 X85.996 Y125.618 E0.49551
G1 X86.135 Y125.271 F7200.000
G1 F5760
G1 X85.991 Y123.424 E-0.76000
G1 E-0.04000 F2100.00000
G1 Z0.800 F7200.000
G1 X86.426 Y124.366
G1 Z0.200
G1 E0.80000 F2100.00000
G1 F1800
G1 X87.019 Y124.959 E0.02628
G1 X87.552 Y124.959 E0.01673
G1 X86.596 Y124.002 E0.04241
G1 X86.596 Y123.469 E0.01673
G1 X88.086 Y124.959 E0.06607
G1 X88.619 Y124.959 E0.01673
G1 X86.596 Y122.936 E0.08972
G1 X86.596 Y122.402 E0.01673
G1 X89.153 Y124.959 E0.11338
G1 X89.686 Y124.959 E0.01673
G1 X86.596 Y121.869 E0.13703
G1 X86.596 Y121.335 E0.01673
G1 X90.219 Y124.959 E0.16069
G1 X90.753 Y124.959 E0.01673
G1 X86.596 Y120.802 E0.18434
G1 X86.596 Y120.269 E0.01673
G1 X91.286 Y124.959 E0.20800
G1 X91.819 Y124.959 E0.01673
G1 X86.596 Y119.735 E0.23165
G1 X86.596 Y119.202 E0.01673
G1 X92.353 Y124.959 E0.25531
G1 X92.886 Y124.959 E0.01673
G1 X86.596 Y118.669 E0.27896
G1 X86.596 Y118.135 E0.01673
G1 X93.420 Y124.959 E0.30262
G1 X93.953 Y124.959 E0.01673
G1 X86.596 Y117.602 E0.32627
G1 X86.596 Y117.068 E0.01673
G1 X94.486 Y124.959 E0.34993
G1 X95.020 Y124.959 E0.01673
G1 X86.596 Y116.535 E0.37358
G1 X86.596 Y116.002 E0.01673
G1 X95.553 Y124.959 E0.39724
G1 X96.086 Y124.959 E0.01673
G1 X86.596 Y115.468 E0.42089
G1 X86.596 Y114.935 E0.01673
G1 X96.620 Y124.959 E0.44455
G1 X97.153 Y124.959 E0.01673
G1 X86.596 Y114.402 E0.46820
G1 X86.596 Y113.868 E0.01673
G1 X97.686 Y124.959 E0.49186
G1 X98.220 Y124.959 E0.01673
G1 X86.596 Y113.335 E0.51551
G1 X86.596 Y112.801 E0.01673
G1 X98.753 Y124.959 E0.53917
G1 X99.287 Y124.959 E0.01673
G1 X86.596 Y112.268 E0.56282
G1 X86.596 Y111.735 E0.01673
G1 X99.820 Y124.959 E0.58648
G1 X100.353 Y124.959 E0.01673
G1 X86.596 Y111.201 E0.61013
G1 X86.596 Y110.668 E0.01673
G1 X100.887 Y124.959 E0.63379
G1 X101.210 Y124.959 E0.01015
G1 X101.246 Y124.785 E0.00556
G1 X86.596 Y110.135 E0.64973
G1 X86.596 Y109.601 E0.01673
G1 X101.358 Y124.363 E0.65467
G1 X101.498 Y123.970 E0.01309
G1 X86.596 Y109.068 E0.66089
G1 X86.596 Y108.535 E0.01673
G1 X101.669 Y123.607 E0.66848
G1 X101.863 Y123.268 E0.01226
G1 X86.596 Y108.001 E0.67708
G1 X86.596 Y107.468 E0.01673
G1 X102.078 Y122.950 E0.68662
G1 X102.313 Y122.651 E0.01191
G1 X86.596 Y106.934 E0.69705
G1 X86.596 Y106.401 E0.01673
G1 X102.568 Y122.373 E0.70836
G1 X102.835 Y122.106 E0.01183
G1 X86.596 Y105.868 E0.72019
G1 X86.596 Y105.334 E0.01673
G1 X103.102 Y121.840 E0.73202
G1 X103.368 Y121.573 E0.01183
G1 X86.596 Y104.801 E0.74384
G1 X86.596 Y104.268 E0.01673
G1 X103.635 Y121.306 E0.75567
G1 X103.902 Y121.040 E0.01183
G1 X86.596 Y103.734 E0.76750
G1 X86.596 Y103.201 E0.01673
G1 X104.168 Y120.773 E0.77933
G1 X104.435 Y120.506 E0.01183
G1 X86.596 Y102.667 E0.79115
G1 X86.596 Y102.134 E0.01673
G1 X104.702 Y120.240 E0.80298
G1 X104.968 Y119.973 E0.01183
G1 X86.596 Y101.601 E0.81481
G1 X86.596 Y101.067 E0.01673
G1 X105.235 Y119.706 E0.82664
G1 X105.502 Y119.440 E0.01183
G1 X86.732 Y100.670 E0.83244
G1 X86.999 Y100.403 E0.01183
G1 X105.768 Y119.173 E0.83244
G1 X106.035 Y118.906 E0.01183
G1 X87.265 Y100.136 E0.83244
G1 X87.532 Y99.870 E0.01183
G1 X106.302 Y118.640 E0.83244
G1 X106.569 Y118.373 E0.01183
G1 X87.799 Y99.603 E0.83244
G1 X88.065 Y99.336 E0.01183
G1 X106.835 Y118.106 E0.83244
G1 X107.102 Y117.839 E0.01183
G1 X88.332 Y99.070 E0.83244
G1 X88.599 Y98.803 E0.01183
G1 X107.369 Y117.573 E0.83244
G1 X107.635 Y117.306 E0.01183
G1 X88.865 Y98.536 E0.83244
G1 X89.132 Y98.270 E0.01183
G1 X107.902 Y117.039 E0.83244
G1 X108.169 Y116.773 E0.01183
G1 X89.399 Y98.003 E0.83244
G1 X89.666 Y97.736 E0.01183
G1 X108.435 Y116.506 E0.83244
G1 X108.702 Y116.239 E0.01183
G1 X89.932 Y97.470 E0.83244
G1 X90.199 Y97.203 E0.01183
G1 X108.969 Y115.973 E0.83244
G1 X109.235 Y115.706 E0.01183
G1 X90.466 Y96.936 E0.83244
G1 X90.732 Y96.670 E0.01183
G1 X109.502 Y115.439 E0.83244
G1 X109.769 Y115.173 E0.01183
G1 X90.999 Y96.403 E0.83244
G1 X91.266 Y96.136 E0.01183
G1 X110.035 Y114.906 E0.83244
G1 X110.302 Y114.639 E0.01183
G1 X91.532 Y95.869 E0.83244
G1 X91.799 Y95.603 E0.01183
G1 X110.569 Y114.373 E0.83244
G1 X110.835 Y114.106 E0.01183
G1 X92.066 Y95.336 E0.83244
G1 X92.332 Y95.069 E0.01183
G1 X111.102 Y113.839 E0.83244
G1 X111.369 Y113.573 E0.01183
G1 X92.599 Y94.803 E0.83244
G1 X92.866 Y94.536 E0.01183
G1 X111.636 Y113.306 E0.83244
G1 X111.902 Y113.039 E0.01183
G1 X93.132 Y94.269 E0.83244
G1 X93.399 Y94.003 E0.01183
G1 X112.169 Y112.772 E0.83244
G1 X112.436 Y112.506 E0.01183
G1 X93.666 Y93.736 E0.83244
G1 X93.932 Y93.469 E0.01183
G1 X112.702 Y112.239 E0.83244
G1 X112.969 Y111.972 E0.01183
G1 X94.199 Y93.203 E0.83244
G1 X94.466 Y92.936 E0.01183
G1 X113.236 Y111.706 E0.83244
G1 X113.502 Y111.439 E0.01183
G1 X94.733 Y92.669 E0.83244
G1 X94.999 Y92.403 E0.01183
G1 X113.769 Y111.172 E0.83244
G1 X114.036 Y110.906 E0.01183
G1 X95.266 Y92.136 E0.83244
G1 X95.533 Y91.869 E0.01183
G1 X114.302 Y110.639 E0.83244
G1 X114.569 Y110.372 E0.01183
G1 X95.799 Y91.602 E0.83244
G1 X96.066 Y91.336 E0.01183
G1 X114.836 Y110.106 E0.83244
G1 X115.102 Y109.839 E0.01183
G1 X96.333 Y91.069 E0.83244
G1 X96.599 Y90.802 E0.01183
G1 X115.369 Y109.572 E0.83244
G1 X115.636 Y109.306 E0.01183
G1 X96.866 Y90.536 E0.83244
G1 X97.133 Y90.269 E0.01183
G1 X115.903 Y109.039 E0.83244
G1 X116.169 Y108.772 E0.01183
G1 X97.399 Y90.002 E0.83244
G1 X97.666 Y89.736 E0.01183
G1 X116.436 Y108.506 E0.83244
G1 X116.703 Y108.239 E0.01183
G1 X97.933 Y89.469 E0.83244
G1 X98.199 Y89.202 E0.01183
G1 X116.969 Y107.972 E0.83244
G1 X117.236 Y107.705 E0.01183
G1 X98.466 Y88.936 E0.83244
G1 X98.733 Y88.669 E0.01183
G1 X117.503 Y107.439 E0.83244
G1 X117.769 Y107.172 E0.01183
G1 X98.999 Y88.402 E0.83244
G1 X99.266 Y88.136 E0.01183
G1 X118.036 Y106.905 E0.83244
G1 X118.303 Y106.639 E0.01183
G1 X99.533 Y87.869 E0.83244
G1 X99.800 Y87.602 E0.01183
G1 X118.569 Y106.372 E0.83244
G1 X118.836 Y106.105 E0.01183
G1 X100.066 Y87.336 E0.83244
G1 X100.333 Y87.069 E0.01183
G1 X119.103 Y105.839 E0.83244
G1 X119.369 Y105.572 E0.01183
G1 X100.600 Y86.802 E0.83244
G1 X100.866 Y86.535 E0.01183
G1 X119.636 Y105.305 E0.83244
G1 X119.903 Y105.039 E0.01183
G1 X101.133 Y86.269 E0.83244
G1 X101.400 Y86.002 E0.01183
G1 X120.169 Y104.772 E0.83244
G1 X120.436 Y104.505 E0.01183
G1 X101.666 Y85.735 E0.83244
G1 X101.933 Y85.469 E0.01183
G1 X120.703 Y104.239 E0.83244
G1 X120.970 Y103.972 E0.01183
G1 X102.200 Y85.202 E0.83244
G1 X102.360 Y85.041 E0.00712
G1 X102.572 Y85.041 E0.00665
G1 X121.130 Y103.599 E0.82303
G1 X121.130 Y103.066 E0.01673
G1 X103.106 Y85.041 E0.79938
G1 X103.639 Y85.041 E0.01673
G1 X121.130 Y102.532 E0.77572
G1 X121.130 Y101.999 E0.01673
G1 X104.173 Y85.041 E0.75207
G1 X104.706 Y85.041 E0.01673
G1 X121.130 Y101.466 E0.72841
G1 X121.130 Y100.932 E0.01673
G1 X105.239 Y85.041 E0.70476
G1 X105.773 Y85.041 E0.01673
G1 X121.130 Y100.399 E0.68110
G1 X121.130 Y99.865 E0.01673
G1 X106.306 Y85.041 E0.65745
G1 X106.839 Y85.041 E0.01673
G1 X121.130 Y99.332 E0.63379
G1 X121.130 Y98.799 E0.01673
G1 X107.373 Y85.041 E0.61014
G1 X107.906 Y85.041 E0.01673
G1 X121.130 Y98.265 E0.58648
G1 X121.130 Y97.732 E0.01673
G1 X108.440 Y85.041 E0.56283
G1 X108.973 Y85.041 E0.01673
G1 X121.130 Y97.199 E0.53917
G1 X121.130 Y96.665 E0.01673
G1 X109.506 Y85.041 E0.51552
G1 X110.040 Y85.041 E0.01673
G1 X121.130 Y96.132 E0.49186
G1 X121.130 Y95.599 E0.01673
G1 X110.573 Y85.041 E0.46821
G1 X111.106 Y85.041 E0.01673
G1 X121.130 Y95.065 E0.44455
G1 X121.130 Y94.532 E0.01673
G1 X111.640 Y85.041 E0.42090
G1 X112.173 Y85.041 E0.01673
