; generated by Slic3r Prusa Edition 1.41.0+win64 on 2018-11-06 at 10:45:41

; 

; external perimeters extrusion width = 0.45mm
; perimeters extrusion width = 0.45mm
; infill extrusion width = 0.45mm
; solid infill extrusion width = 0.45mm
; top infill extrusion width = 0.40mm
; first layer extrusion width = 0.42mm

M201 X1000 Y1000 Z1000 E5000 ; sets maximum accelerations, mm/sec^2
M203 X200 Y200 Z12 E120 ; sets maximum feedrates, mm/sec
M204 P1250 R1250 T1250 ; sets acceleration (P, T) and retract acceleration (R), mm/sec^2
M205 X8.00 Y8.00 Z0.40 E1.50 ; sets the jerk limits, mm/sec
M205 S0 T0 ; sets the minimum extruding and travel feed rate, mm/sec
M107
M115 U3.4.1 ; tell printer latest fw version
M83  ; extruder relative mode
M104 S230 ; set extruder temp
M140 S85 ; set bed temp
M190 S85 ; wait for bed temp
M109 S230 ; wait for extruder temp
G28 W ; home all without mesh bed level
G80 ; mesh bed leveling
G1 Y-3.0 F1000.0 ; go outside print area
G92 E0.0
G1 X60.0 E9.0  F1000.0 ; intro line
M73 Q0 S235
M73 P0 R233
G1 X100.0 E12.5  F1000.0 ; intro line
G92 E0.0
M221 S95
M900 K45; Filament gcode
G21 ; set units to millimeters
G90 ; use absolute coordinates
M83 ; use relative distances for extrusion
;BEFORE_LAYER_CHANGE
G92 E0.0
;0.2


G1 E-0.80000 F2100.00000
G1 Z0.600 F10800.000
;AFTER_LAYER_CHANGE
;0.2
G1 X123.587 Y42.391
G1 Z0.200
G1 E0.80000 F2100.00000
M204 S1000
G1 F1200
G1 X124.369 Y42.247 E0.02496
G1 X124.852 Y42.301 E0.01521
G1 X125.310 Y42.460 E0.01521
G1 X134.978 Y47.305 E0.33907
G1 X175.347 Y73.536 E1.50947
G1 X175.901 Y74.067 E0.02405
G1 X176.238 Y74.759 E0.02417
G1 X176.322 Y75.355 E0.01885
G1 X176.322 Y85.371 E0.31407
G1 X176.252 Y85.903 E0.01680
G1 X155.913 Y153.713 E2.21972
G1 X155.652 Y154.202 E0.01737
G1 X155.280 Y154.607 E0.01726
G1 X154.815 Y154.908 E0.01737
G1 X154.289 Y155.083 E0.01737
G1 X84.496 Y167.720 E2.22388
G1 X77.584 Y167.753 E0.21672
G1 X76.841 Y167.611 E0.02372
G1 X76.241 Y167.267 E0.02168
G1 X75.777 Y166.750 E0.02179
G1 X72.459 Y161.007 E0.20794
G1 X72.244 Y160.469 E0.01817
G1 X72.178 Y159.948 E0.01646
G1 X72.178 Y150.421 E0.29873
G1 X72.321 Y149.660 E0.02428
G1 X117.397 Y48.482 E3.47295
G1 X117.796 Y47.912 E0.02179
G1 X122.907 Y42.805 E0.22656
G1 X123.535 Y42.422 E0.02308
; PURGING FINISHED
G1 F8640
G1 X124.369 Y42.247 E-0.19679
G1 X124.852 Y42.301 E-0.11201
G1 X125.310 Y42.460 E-0.11201
G1 X126.623 Y43.119 E-0.33919
G1 E-0.04000 F2100.00000
G1 Z0.800 F10800.000
G1 X81.638 Y157.993
G1 Z0.200
G1 E0.80000 F2100.00000
G1 F1200
G1 X82.011 Y158.186 E0.01320
G1 X82.345 Y158.457 E0.01347
G1 X82.616 Y158.791 E0.01348
G1 X82.809 Y159.165 E0.01319
G1 X82.922 Y159.553 E0.01268
G1 X82.956 Y159.935 E0.01203
G1 X82.922 Y160.317 E0.01203
G1 X82.809 Y160.706 E0.01268
G1 X82.616 Y161.080 E0.01319
G1 X82.345 Y161.413 E0.01348
G1 X82.011 Y161.684 E0.01348
G1 X81.638 Y161.878 E0.01320
G1 X81.249 Y161.990 E0.01268
G1 X80.867 Y162.025 E0.01202
G1 X80.485 Y161.990 E0.01202
G1 X80.096 Y161.878 E0.01268
G1 X79.723 Y161.684 E0.01320
G1 X79.389 Y161.413 E0.01348
G1 X79.118 Y161.080 E0.01348
G1 X78.924 Y160.706 E0.01319
G1 X78.812 Y160.317 E0.01268
G1 X78.777 Y159.935 E0.01203
G1 X78.812 Y159.553 E0.01203
G1 X78.924 Y159.165 E0.01268
G1 X79.118 Y158.791 E0.01319
G1 X79.389 Y158.457 E0.01348
G1 X79.723 Y158.186 E0.01347
G1 X80.099 Y157.991 E0.01328
G1 X80.501 Y157.879 E0.01311
G1 X80.867 Y157.846 E0.01151
G1 X81.249 Y157.881 E0.01202
G1 X81.580 Y157.976 E0.01080
G1 X81.476 Y158.338 F10800.000
G1 F1200
G1 X81.804 Y158.503 E0.01151
G1 X82.077 Y158.725 E0.01104
G1 X82.299 Y158.999 E0.01105
G1 X82.457 Y159.305 E0.01081
G1 X82.549 Y159.623 E0.01039
G1 X82.578 Y159.935 E0.00982
G1 X82.549 Y160.247 E0.00982
G1 X82.457 Y160.566 E0.01039
G1 X82.299 Y160.872 E0.01081
G1 X82.077 Y161.145 E0.01105
G1 X81.803 Y161.367 E0.01104
G1 X81.497 Y161.526 E0.01081
G1 X81.179 Y161.618 E0.01039
G1 X80.867 Y161.646 E0.00982
G1 X80.555 Y161.618 E0.00982
G1 X80.237 Y161.526 E0.01039
G1 X79.930 Y161.367 E0.01081
G1 X79.657 Y161.145 E0.01104
G1 X79.435 Y160.872 E0.01105
G1 X79.276 Y160.566 E0.01081
G1 X79.185 Y160.247 E0.01039
G1 X79.156 Y159.935 E0.00982
G1 X79.185 Y159.623 E0.00982
G1 X79.276 Y159.305 E0.01039
G1 X79.435 Y158.999 E0.01081
G1 X79.657 Y158.725 E0.01105
G1 X79.930 Y158.503 E0.01104
G1 X80.237 Y158.344 E0.01084
G1 X80.570 Y158.252 E0.01081
G1 X80.867 Y158.225 E0.00936
G1 X81.179 Y158.253 E0.00982
G1 X81.418 Y158.322 E0.00781
G1 X81.762 Y158.109 F10800.000
G1 F8640
G1 X81.804 Y158.503 E-0.09837
G1 X82.077 Y158.725 E-0.08131
G1 X82.299 Y158.999 E-0.08134
G1 X82.457 Y159.305 E-0.07963
G1 X82.549 Y159.623 E-0.07650
G1 X82.578 Y159.935 E-0.07233
G1 X82.549 Y160.247 E-0.07233
G1 X82.457 Y160.566 E-0.07650
G1 X82.299 Y160.872 E-0.07962
G1 X82.184 Y161.013 E-0.04206
G1 E-0.04000 F2100.00000
G1 Z0.800 F10800.000
G1 X86.780 Y151.948
G1 Z0.200
G1 E0.80000 F2100.00000
G1 F1200
G1 X86.780 Y159.778 E0.24550
G1 X83.778 Y164.977 E0.18824
G1 X77.956 Y164.977 E0.18255
G1 X74.954 Y159.778 E0.18824
G1 X74.954 Y150.560 E0.28902
G1 X119.859 Y49.774 E3.45956
G1 X124.483 Y45.150 E0.20503
G1 X132.880 Y49.348 E0.29437
G1 X132.880 Y114.926 E2.05614
G1 X152.880 Y134.926 E0.88683
G1 X152.880 Y151.948 E0.53372
G1 X86.840 Y151.948 E2.07064
G1 X87.157 Y152.325 F10800.000
G1 F1200
G1 X87.157 Y159.879 E0.23684
G1 X83.996 Y165.355 E0.19824
G1 X77.738 Y165.355 E0.19620
G1 X74.577 Y159.879 E0.19824
G1 X74.577 Y150.480 E0.29470
G1 X119.543 Y49.556 E3.46426
G1 X124.408 Y44.691 E0.21574
G1 X133.257 Y49.115 E0.31019
G1 X133.257 Y114.770 E2.05855
G1 X153.257 Y134.770 E0.88683
G1 X153.257 Y152.325 E0.55044
G1 X87.217 Y152.325 E2.07064
G1 X86.758 Y152.360 F10800.000
G1 F8640
G1 X87.191 Y155.617 E-0.76000
G1 E-0.04000 F2100.00000
G1 Z0.800 F10800.000
G1 X81.317 Y157.783
G1 Z0.200
G1 E0.80000 F2100.00000
G1 F1200
G1 X75.237 Y151.703 E0.26983
G1 X75.237 Y152.236 E0.01675
G1 X80.588 Y157.587 E0.23748
M73 Q0 S234
G1 X80.450 Y157.600 E0.00434
G1 X80.150 Y157.683 E0.00977
G1 X75.237 Y152.770 E0.21805
G1 X75.237 Y153.304 E0.01675
G1 X79.774 Y157.841 E0.20136
M73 P0 R232
G1 X79.567 Y157.949 E0.00734
G1 X79.446 Y158.047 E0.00487
G1 X75.237 Y153.837 E0.18680
G1 X75.237 Y154.371 E0.01675
G1 X79.158 Y158.293 E0.17403
G1 X78.919 Y158.587 E0.01191
G1 X75.237 Y154.905 E0.16342
G1 X75.237 Y155.438 E0.01675
G1 X78.728 Y158.930 E0.15492
G1 X78.660 Y159.060 E0.00460
G1 X78.585 Y159.321 E0.00852
G1 X75.237 Y155.972 E0.14859
G1 X75.237 Y156.506 E0.01675
G1 X78.508 Y159.777 E0.14516
G1 X78.493 Y159.935 E0.00499
G1 X78.530 Y160.332 E0.01251
G1 X75.237 Y157.040 E0.14613
G1 X75.237 Y157.573 E0.01675
G1 X82.358 Y164.695 E0.31603
G1 X81.824 Y164.695 E0.01675
G1 X75.237 Y158.107 E0.29235
G1 X75.237 Y158.641 E0.01675
G1 X81.291 Y164.695 E0.26866
G1 X80.757 Y164.695 E0.01675
G1 X75.237 Y159.174 E0.24498
G1 X75.245 Y159.716 E0.01700
G1 X80.223 Y164.695 E0.22094
G1 X79.690 Y164.695 E0.01675
G1 X75.510 Y160.515 E0.18548
G1 F8640
G1 X77.838 Y162.843 E-0.76000
G1 E-0.04000 F2100.00000
G1 Z0.800 F10800.000
G1 X76.239 Y161.778
G1 Z0.200
G1 E0.80000 F2100.00000
G1 F1200
G1 X79.326 Y164.864 E0.13697
G1 X78.792 Y164.864 F10800.000
G1 F1200
G1 X76.968 Y163.041 E0.08093
G1 F8640
G1 X78.792 Y164.864 E-0.59550
G1 E-0.20450 F2100.00000
G1 Z0.800 F10800.000
G1 X80.232 Y162.035
G1 Z0.200
G1 E0.80000 F2100.00000
G1 F1200
G1 X82.892 Y164.695 E0.11804
G1 X83.426 Y164.695 E0.01675
G1 X81.025 Y162.294 E0.10652
G1 X81.301 Y162.269 E0.00869
G1 X81.482 Y162.217 E0.00590
G1 X83.741 Y164.476 E0.10025
G1 X83.936 Y164.138 E0.01226
G1 X81.873 Y162.075 E0.09156
G1 X82.215 Y161.883 E0.01231
G1 X84.132 Y163.800 E0.08504
G1 X84.327 Y163.461 E0.01226
G1 X82.510 Y161.644 E0.08065
G1 X82.756 Y161.356 E0.01188
G1 X84.522 Y163.123 E0.07840
G1 X84.718 Y162.784 E0.01226
G1 X82.961 Y161.028 E0.07795
G1 X83.073 Y160.811 E0.00766
G1 X83.119 Y160.652 E0.00519
G1 X84.913 Y162.446 E0.07960
G1 X85.108 Y162.108 E0.01226
G1 X83.215 Y160.214 E0.08402
G1 X83.240 Y159.935 E0.00879
G1 X83.217 Y159.683 E0.00795
G1 X85.304 Y161.769 E0.09258
G1 X85.499 Y161.431 E0.01226
G1 X75.237 Y151.169 E0.45541
G1 X75.237 Y150.635 E0.01675
G1 X85.694 Y161.093 E0.46408
G1 X85.890 Y160.754 E0.01226
G1 X75.397 Y150.261 E0.46565
G1 X75.561 Y149.892 E0.01268
G1 X86.085 Y160.416 E0.46702
G1 X86.280 Y160.078 E0.01226
G1 X75.726 Y149.523 E0.46839
G1 X75.890 Y149.154 E0.01268
G1 X86.476 Y159.739 E0.46976
G1 X86.497 Y159.702 E0.00134
G1 X86.497 Y159.227 E0.01492
G1 X76.055 Y148.785 E0.46341
G1 X76.219 Y148.415 E0.01268
G1 X86.497 Y158.693 E0.45611
G1 X86.497 Y158.159 E0.01675
G1 X76.384 Y148.046 E0.44881
G1 X76.548 Y147.677 E0.01268
G1 X86.497 Y157.626 E0.44151
G1 X86.497 Y157.092 E0.01675
G1 X76.713 Y147.308 E0.43421
G1 X76.877 Y146.939 E0.01268
G1 X86.497 Y156.558 E0.42691
G1 X86.497 Y156.025 E0.01675
G1 X77.042 Y146.569 E0.41961
G1 X77.206 Y146.200 E0.01268
G1 X86.497 Y155.491 E0.41231
G1 X86.497 Y154.957 E0.01675
G1 X77.371 Y145.831 E0.40501
G1 X77.535 Y145.462 E0.01268
G1 X86.497 Y154.424 E0.39771
G1 X86.497 Y153.890 E0.01675
G1 X77.700 Y145.092 E0.39041
G1 X77.864 Y144.723 E0.01268
G1 X86.497 Y153.356 E0.38311
G1 X86.497 Y152.822 E0.01675
G1 X78.029 Y144.354 E0.37581
G1 X78.193 Y143.985 E0.01268
G1 X86.497 Y152.289 E0.36851
G1 X86.497 Y151.755 E0.01675
G1 X78.358 Y143.616 E0.36121
G1 X78.522 Y143.246 E0.01268
G1 X86.941 Y151.666 E0.37362
G1 X87.475 Y151.666 E0.01675
G1 X78.687 Y142.877 E0.39001
G1 X78.851 Y142.508 E0.01268
G1 X88.009 Y151.666 E0.40639
G1 X88.542 Y151.666 E0.01675
G1 X79.016 Y142.139 E0.42277
G1 X79.180 Y141.770 E0.01268
G1 X89.076 Y151.666 E0.43916
G1 X89.610 Y151.666 E0.01675
G1 X79.345 Y141.400 E0.45554
G1 X79.509 Y141.031 E0.01268
G1 X90.144 Y151.666 E0.47193
G1 X90.677 Y151.666 E0.01675
G1 X79.674 Y140.662 E0.48831
G1 X79.838 Y140.293 E0.01268
G1 X91.211 Y151.666 E0.50470
G1 X91.745 Y151.666 E0.01675
G1 X80.003 Y139.924 E0.52108
G1 X80.167 Y139.554 E0.01268
G1 X92.278 Y151.666 E0.53747
G1 X92.812 Y151.666 E0.01675
G1 X80.332 Y139.185 E0.55385
G1 X80.496 Y138.816 E0.01268
G1 X93.346 Y151.666 E0.57024
G1 X93.880 Y151.666 E0.01675
G1 X80.661 Y138.447 E0.58662
G1 X80.825 Y138.078 E0.01268
G1 X94.413 Y151.666 E0.60301
G1 X94.947 Y151.666 E0.01675
G1 X80.990 Y137.708 E0.61939
G1 X81.154 Y137.339 E0.01268
G1 X95.481 Y151.666 E0.63577
G1 X96.014 Y151.666 E0.01675
G1 X81.319 Y136.970 E0.65216
G1 X81.483 Y136.601 E0.01268
G1 X96.548 Y151.666 E0.66854
G1 X97.082 Y151.666 E0.01675
G1 X81.648 Y136.232 E0.68493
G1 X81.812 Y135.862 E0.01268
G1 X97.615 Y151.666 E0.70131
G1 X98.149 Y151.666 E0.01675
G1 X81.977 Y135.493 E0.71770
G1 X82.141 Y135.124 E0.01268
G1 X98.683 Y151.666 E0.73408
G1 X99.217 Y151.666 E0.01675
G1 X82.306 Y134.755 E0.75047
G1 X82.470 Y134.385 E0.01268
G1 X99.750 Y151.666 E0.76685
G1 X100.284 Y151.666 E0.01675
G1 X82.635 Y134.016 E0.78324
G1 X82.799 Y133.647 E0.01268
G1 X100.818 Y151.666 E0.79962
G1 X101.351 Y151.666 E0.01675
G1 X82.964 Y133.278 E0.81601
G1 X83.128 Y132.909 E0.01268
G1 X101.885 Y151.666 E0.83239
G1 X102.419 Y151.666 E0.01675
G1 X83.293 Y132.539 E0.84877
G1 X83.457 Y132.170 E0.01268
G1 X102.953 Y151.666 E0.86516
G1 X103.486 Y151.666 E0.01675
G1 X83.622 Y131.801 E0.88154
G1 X83.786 Y131.432 E0.01268
G1 X104.020 Y151.666 E0.89793
G1 X104.554 Y151.666 E0.01675
G1 X83.951 Y131.063 E0.91431
G1 X84.115 Y130.693 E0.01268
G1 X105.087 Y151.666 E0.93070
M73 Q0 S233
M73 P0 R231
G1 X105.621 Y151.666 E0.01675
G1 X84.280 Y130.324 E0.94708
G1 X84.444 Y129.955 E0.01268
G1 X106.155 Y151.666 E0.96347
G1 X106.688 Y151.666 E0.01675
G1 X84.609 Y129.586 E0.97985
G1 X84.773 Y129.217 E0.01268
G1 X107.222 Y151.666 E0.99624
G1 X107.756 Y151.666 E0.01675
G1 X84.938 Y128.847 E1.01262
G1 X85.102 Y128.478 E0.01268
G1 X108.290 Y151.666 E1.02901
G1 X108.823 Y151.666 E0.01675
G1 X85.267 Y128.109 E1.04539
G1 X85.431 Y127.740 E0.01268
G1 X109.357 Y151.666 E1.06177
G1 X109.891 Y151.666 E0.01675
G1 X85.596 Y127.371 E1.07816
G1 X85.760 Y127.001 E0.01268
G1 X110.424 Y151.666 E1.09454
G1 X110.958 Y151.666 E0.01675
G1 X85.925 Y126.632 E1.11093
G1 X86.089 Y126.263 E0.01268
G1 X111.492 Y151.666 E1.12731
G1 X112.025 Y151.666 E0.01675
G1 X86.254 Y125.894 E1.14370
G1 X86.418 Y125.525 E0.01268
G1 X112.559 Y151.666 E1.16008
G1 X113.093 Y151.666 E0.01675
G1 X86.583 Y125.155 E1.17647
G1 X86.747 Y124.786 E0.01268
G1 X113.627 Y151.666 E1.19285
G1 X114.160 Y151.666 E0.01675
G1 X86.912 Y124.417 E1.20924
G1 X87.076 Y124.048 E0.01268
G1 X114.694 Y151.666 E1.22562
G1 X115.228 Y151.666 E0.01675
G1 X87.241 Y123.678 E1.24200
G1 X87.405 Y123.309 E0.01268
G1 X115.761 Y151.666 E1.25839
G1 X116.295 Y151.666 E0.01675
G1 X87.570 Y122.940 E1.27477
G1 X87.734 Y122.571 E0.01268
G1 X116.829 Y151.666 E1.29116
G1 X117.363 Y151.666 E0.01675
G1 X87.899 Y122.202 E1.30754
G1 X88.063 Y121.832 E0.01268
G1 X117.896 Y151.666 E1.32393
G1 X118.430 Y151.666 E0.01675
G1 X88.228 Y121.463 E1.34031
G1 X88.392 Y121.094 E0.01268
G1 X118.964 Y151.666 E1.35670
G1 X119.497 Y151.666 E0.01675
G1 X88.557 Y120.725 E1.37308
G1 X88.721 Y120.356 E0.01268
G1 X120.031 Y151.666 E1.38947
G1 X120.565 Y151.666 E0.01675
G1 X88.886 Y119.986 E1.40585
G1 X89.050 Y119.617 E0.01268
G1 X121.098 Y151.666 E1.42224
G1 X121.632 Y151.666 E0.01675
G1 X89.215 Y119.248 E1.43862
G1 X89.379 Y118.879 E0.01268
M73 Q1 S232
M73 P1 R230
G1 X122.166 Y151.666 E1.45500
G1 X122.700 Y151.666 E0.01675
G1 X89.544 Y118.510 E1.47139
G1 X89.708 Y118.140 E0.01268
G1 X123.233 Y151.666 E1.48777
G1 X123.767 Y151.666 E0.01675
G1 X89.873 Y117.771 E1.50416
G1 X90.037 Y117.402 E0.01268
G1 X124.301 Y151.666 E1.52054
G1 X124.834 Y151.666 E0.01675
G1 X90.202 Y117.033 E1.53693
G1 X90.366 Y116.664 E0.01268
G1 X125.368 Y151.666 E1.55331
G1 X125.902 Y151.666 E0.01675
G1 X90.531 Y116.294 E1.56970
G1 X90.695 Y115.925 E0.01268
G1 X126.436 Y151.666 E1.58608
G1 X126.969 Y151.666 E0.01675
G1 X90.860 Y115.556 E1.60247
G1 X91.024 Y115.187 E0.01268
G1 X127.503 Y151.666 E1.61885
G1 X128.037 Y151.666 E0.01675
G1 X91.189 Y114.817 E1.63524
G1 X91.353 Y114.448 E0.01268
G1 X128.570 Y151.666 E1.65162
G1 X129.104 Y151.666 E0.01675
G1 X91.518 Y114.079 E1.66800
G1 X91.682 Y113.710 E0.01268
G1 X129.638 Y151.666 E1.68439
G1 X130.171 Y151.666 E0.01675
G1 X91.847 Y113.341 E1.70077
G1 X92.011 Y112.971 E0.01268
G1 X130.705 Y151.666 E1.71716
G1 X131.239 Y151.666 E0.01675
G1 X92.176 Y112.602 E1.73354
G1 X92.340 Y112.233 E0.01268
G1 X131.773 Y151.666 E1.74993
G1 X132.306 Y151.666 E0.01675
G1 X92.505 Y111.864 E1.76631
G1 X92.669 Y111.495 E0.01268
G1 X132.840 Y151.666 E1.78270
G1 X133.374 Y151.666 E0.01675
G1 X92.834 Y111.125 E1.79908
G1 X92.998 Y110.756 E0.01268
G1 X133.907 Y151.666 E1.81547
M73 Q1 S230
M73 P1 R229
G1 X134.441 Y151.666 E0.01675
G1 X93.163 Y110.387 E1.83185
G1 X93.327 Y110.018 E0.01268
G1 X134.975 Y151.666 E1.84823
G1 X135.509 Y151.666 E0.01675
G1 X93.492 Y109.649 E1.86462
G1 X93.656 Y109.279 E0.01268
G1 X136.042 Y151.666 E1.88100
G1 X136.576 Y151.666 E0.01675
G1 X93.821 Y108.910 E1.89739
G1 X93.985 Y108.541 E0.01268
G1 X137.110 Y151.666 E1.91377
G1 X137.643 Y151.666 E0.01675
G1 X94.150 Y108.172 E1.93016
G1 X94.314 Y107.803 E0.01268
G1 X138.177 Y151.666 E1.94654
G1 X138.711 Y151.666 E0.01675
G1 X94.479 Y107.433 E1.96293
G1 X94.643 Y107.064 E0.01268
G1 X139.244 Y151.666 E1.97931
G1 X139.778 Y151.666 E0.01675
G1 X94.808 Y106.695 E1.99570
G1 X94.972 Y106.326 E0.01268
G1 X140.312 Y151.666 E2.01208
G1 X140.846 Y151.666 E0.01675
G1 X95.137 Y105.957 E2.02847
G1 X95.301 Y105.587 E0.01268
G1 X141.379 Y151.666 E2.04485
G1 X141.913 Y151.666 E0.01675
G1 X95.466 Y105.218 E2.06123
G1 X95.630 Y104.849 E0.01268
G1 X142.447 Y151.666 E2.07762
G1 X142.980 Y151.666 E0.01675
G1 X95.795 Y104.480 E2.09400
G1 X95.959 Y104.110 E0.01268
G1 X143.514 Y151.666 E2.11039
G1 X144.048 Y151.666 E0.01675
G1 X96.124 Y103.741 E2.12677
M73 Q2 S229
M73 P2 R228
G1 X96.288 Y103.372 E0.01268
G1 X144.582 Y151.666 E2.14316
G1 X145.115 Y151.666 E0.01675
G1 X96.453 Y103.003 E2.15954
G1 X96.617 Y102.634 E0.01268
G1 X145.649 Y151.666 E2.17593
G1 X146.183 Y151.666 E0.01675
G1 X96.782 Y102.264 E2.19231
G1 X96.946 Y101.895 E0.01268
G1 X146.716 Y151.666 E2.20870
G1 X147.250 Y151.665 E0.01675
G1 X97.111 Y101.526 E2.22508
