; generated by Slic3r Prusa Edition 1.41.0+win64 on 2018-11-06 at 10:44:28

; 

; external perimeters extrusion width = 0.45mm
; perimeters extrusion width = 0.45mm
; infill extrusion width = 0.45mm
; solid infill extrusion width = 0.45mm
; top infill extrusion width = 0.40mm
; first layer extrusion width = 0.42mm

M201 X1000 Y1000 Z1000 E5000 ; sets maximum accelerations, mm/sec^2
M203 X200 Y200 Z12 E120 ; sets maximum feedrates, mm/sec
M204 P1250 R1250 T1250 ; sets acceleration (P, T) and retract acceleration (R), mm/sec^2
M205 X8.00 Y8.00 Z0.40 E1.50 ; sets the jerk limits, mm/sec
M205 S0 T0 ; sets the minimum extruding and travel feed rate, mm/sec
M107
M115 U3.4.1 ; tell printer latest fw version
M83  ; extruder relative mode
M104 S230 ; set extruder temp
M140 S85 ; set bed temp
M190 S85 ; wait for bed temp
M109 S230 ; wait for extruder temp
G28 W ; home all without mesh bed level
G80 ; mesh bed leveling
G1 Y-3.0 F1000.0 ; go outside print area
G92 E0.0
G1 X60.0 E9.0  F1000.0 ; intro line
M73 Q0 S109
M73 P0 R108
G1 X100.0 E12.5  F1000.0 ; intro line
G92 E0.0
M221 S95
M900 K45; Filament gcode
G21 ; set units to millimeters
G90 ; use absolute coordinates
M83 ; use relative distances for extrusion
;BEFORE_LAYER_CHANGE
G92 E0.0
;0.2


G1 E-0.80000 F2100.00000
G1 Z0.600 F10800.000
;AFTER_LAYER_CHANGE
;0.2
G1 X104.235 Y84.778
G1 Z0.200
G1 E0.80000 F2100.00000
M204 S1000
G1 F1200
G1 X104.924 Y84.194 E0.02832
G1 X105.468 Y83.956 E0.01862
G1 X106.056 Y83.872 E0.01862
G1 X168.190 Y83.872 E1.94817
G1 X168.665 Y83.925 E0.01498
G1 X169.117 Y84.080 E0.01498
G1 X169.938 Y84.695 E0.03217
G1 X170.402 Y85.372 E0.02574
G1 X170.644 Y86.309 E0.03032
G1 X170.629 Y115.034 E0.90065
G1 X170.456 Y115.632 E0.01953
G1 X161.793 Y134.625 E0.65454
G1 X161.444 Y135.154 E0.01987
G1 X160.957 Y135.560 E0.01987
G1 X160.413 Y135.798 E0.01862
G1 X159.822 Y135.882 E0.01873
G1 X86.842 Y135.882 E2.28822
G1 X86.293 Y135.807 E0.01737
G1 X85.784 Y135.597 E0.01726
G1 X85.344 Y135.268 E0.01726
G1 X84.997 Y134.835 E0.01737
G1 X84.771 Y134.333 E0.01726
G1 X84.678 Y133.787 E0.01737
G1 X84.679 Y131.581 E0.06919
G1 X84.828 Y130.891 E0.02213
G1 X103.846 Y85.384 E1.54640
G1 X104.203 Y84.829 E0.02071
; PURGING FINISHED
G1 F8640
G1 X104.924 Y84.194 E-0.22184
G1 X105.468 Y83.956 E-0.13713
G1 X106.056 Y83.872 E-0.13713
G1 X107.199 Y83.872 E-0.26389
G1 E-0.04000 F2100.00000
G1 Z0.800 F10800.000
G1 X99.129 Y124.484
G1 Z0.200
G1 E0.80000 F2100.00000
G1 F1200
G1 X120.549 Y124.484 E0.67161
G1 X120.549 Y131.904 E0.23265
G1 X99.129 Y131.904 E0.67161
G1 X99.129 Y124.544 E0.23077
G1 X98.968 Y124.117 F10800.000
G1 F8640
G1 X102.420 Y124.535 E-0.76000
G1 E-0.04000 F2100.00000
G1 Z0.800 F10800.000
G1 X126.129 Y124.544
G1 Z0.200
G1 E0.80000 F2100.00000
G1 F1200
G1 X126.129 Y124.484 E0.00188
G1 X147.549 Y124.484 E0.67161
G1 X147.549 Y131.904 E0.23265
G1 X126.129 Y131.904 E0.67161
G1 X126.129 Y124.604 E0.22889
G1 X126.069 Y124.537 F10800.000
G1 X125.752 Y124.107
G1 F1200
G1 X125.752 Y132.281 E0.25629
G1 X147.926 Y132.281 E0.69526
G1 X147.926 Y124.916 E0.23092
G1 X152.696 Y132.281 E0.27512
G1 X158.663 Y132.281 E0.18710
G1 X158.663 Y133.107 E0.02589
G1 X88.014 Y133.107 E2.21514
G1 X88.014 Y132.281 E0.02589
G1 X93.982 Y132.281 E0.18710
G1 X98.752 Y124.916 E0.27511
G1 X98.752 Y132.281 E0.23091
G1 X120.926 Y132.281 E0.69526
G1 X120.926 Y124.107 E0.25629
G1 X99.276 Y124.107 E0.67881
G1 X100.459 Y122.281 E0.06821
G1 X146.219 Y122.281 E1.43479
G1 X147.402 Y124.107 E0.06821
G1 X125.812 Y124.107 E0.67694
G1 F8640
G1 X125.787 Y127.398 E-0.76000
G1 E-0.04000 F2100.00000
G1 Z0.800 F10800.000
G1 X152.901 Y131.904
G1 Z0.200
G1 E0.80000 F2100.00000
G1 F1200
G1 X159.040 Y131.904 E0.19250
G1 X159.040 Y133.484 E0.04954
G1 X87.637 Y133.484 E2.23879
G1 X87.637 Y131.904 E0.04954
G1 X93.777 Y131.904 E0.19250
G1 X100.254 Y121.904 E0.37357
G1 X146.424 Y121.904 E1.44765
G1 X152.868 Y131.853 E0.37168
G1 X153.079 Y132.262 F10800.000
G1 X152.008 Y131.428
G1 F1200
G1 X148.208 Y127.628 E0.16890
G1 X148.208 Y128.162 E0.01680
G1 X152.870 Y132.824 E0.20720
G1 X153.405 Y132.824 E0.01680
G1 X153.144 Y132.564 E0.01157
G1 X153.679 Y132.564 E0.01680
G1 X153.939 Y132.824 E0.01157
G1 X154.474 Y132.824 E0.01680
G1 X154.213 Y132.564 E0.01157
G1 X154.748 Y132.564 E0.01680
G1 X155.008 Y132.824 E0.01157
G1 X155.543 Y132.824 E0.01680
G1 X155.283 Y132.564 E0.01157
G1 X155.817 Y132.564 E0.01680
G1 X156.077 Y132.824 E0.01157
G1 X156.612 Y132.824 E0.01680
G1 X156.352 Y132.564 E0.01157
G1 X156.886 Y132.564 E0.01680
G1 X157.147 Y132.824 E0.01157
G1 X157.681 Y132.824 E0.01680
G1 X157.421 Y132.564 E0.01157
G1 X157.955 Y132.564 E0.01680
G1 X158.385 Y132.994 E0.01911
G1 F8640
G1 X157.955 Y132.564 E-0.14040
G1 X157.421 Y132.564 E-0.12343
G1 X157.681 Y132.824 E-0.08499
G1 X157.147 Y132.824 E-0.12343
G1 X156.886 Y132.564 E-0.08499
G1 X156.352 Y132.564 E-0.12343
G1 X156.595 Y132.807 E-0.07932
G1 E-0.04000 F2100.00000
G1 Z0.800 F10800.000
G1 X152.505 Y132.994
G1 Z0.200
G1 E0.80000 F2100.00000
G1 F1200
G1 X148.208 Y128.697 E0.19098
G1 X148.208 Y129.232 E0.01680
G1 X151.801 Y132.824 E0.15968
G1 X151.266 Y132.824 E0.01680
G1 X148.208 Y129.766 E0.13592
G1 X148.208 Y130.301 E0.01680
G1 X150.732 Y132.824 E0.11216
G1 X150.197 Y132.824 E0.01680
G1 X148.208 Y130.835 E0.08839
G1 X148.208 Y131.370 E0.01680
G1 X149.663 Y132.824 E0.06463
G1 X149.128 Y132.824 E0.01680
G1 X148.208 Y131.904 E0.04087
G1 X148.208 Y132.439 E0.01680
G1 X148.593 Y132.824 E0.01711
G1 X148.059 Y132.824 E0.01680
G1 X147.799 Y132.564 E0.01157
G1 X147.264 Y132.564 E0.01680
G1 X147.524 Y132.824 E0.01157
G1 X146.990 Y132.824 E0.01680
G1 X146.729 Y132.564 E0.01157
G1 X146.195 Y132.564 E0.01680
G1 X146.455 Y132.824 E0.01157
G1 X145.921 Y132.824 E0.01680
G1 X145.660 Y132.564 E0.01157
G1 X145.126 Y132.564 E0.01680
G1 X145.386 Y132.824 E0.01157
G1 X144.851 Y132.824 E0.01680
G1 X144.591 Y132.564 E0.01157
G1 X144.057 Y132.564 E0.01680
G1 X144.317 Y132.824 E0.01157
G1 X143.782 Y132.824 E0.01680
G1 X143.522 Y132.564 E0.01157
G1 X142.987 Y132.564 E0.01680
G1 X143.248 Y132.824 E0.01157
G1 X142.713 Y132.824 E0.01680
G1 X142.453 Y132.564 E0.01157
G1 X141.918 Y132.564 E0.01680
G1 X142.179 Y132.824 E0.01157
G1 X141.644 Y132.824 E0.01680
G1 X141.384 Y132.564 E0.01157
G1 X140.849 Y132.564 E0.01680
G1 X141.109 Y132.824 E0.01157
G1 X140.575 Y132.824 E0.01680
G1 X140.315 Y132.564 E0.01157
G1 X139.780 Y132.564 E0.01680
G1 X140.040 Y132.824 E0.01157
G1 X139.506 Y132.824 E0.01680
G1 X139.245 Y132.564 E0.01157
G1 X138.711 Y132.564 E0.01680
G1 X138.971 Y132.824 E0.01157
G1 X138.437 Y132.824 E0.01680
G1 X138.176 Y132.564 E0.01157
G1 X137.642 Y132.564 E0.01680
G1 X137.902 Y132.824 E0.01157
G1 X137.367 Y132.824 E0.01680
G1 X137.107 Y132.564 E0.01157
G1 X136.573 Y132.564 E0.01680
G1 X136.833 Y132.824 E0.01157
G1 X136.298 Y132.824 E0.01680
G1 X136.038 Y132.564 E0.01157
G1 X135.504 Y132.564 E0.01680
G1 X135.764 Y132.824 E0.01157
G1 X135.229 Y132.824 E0.01680
G1 X134.969 Y132.564 E0.01157
G1 X134.434 Y132.564 E0.01680
G1 X134.695 Y132.824 E0.01157
G1 X134.160 Y132.824 E0.01680
G1 X133.900 Y132.564 E0.01157
G1 X133.365 Y132.564 E0.01680
G1 X133.626 Y132.824 E0.01157
G1 X133.091 Y132.824 E0.01680
G1 X132.831 Y132.564 E0.01157
G1 X132.296 Y132.564 E0.01680
G1 X132.556 Y132.824 E0.01157
G1 X132.022 Y132.824 E0.01680
G1 X131.762 Y132.564 E0.01157
G1 X131.227 Y132.564 E0.01680
G1 X131.487 Y132.824 E0.01157
G1 X130.953 Y132.824 E0.01680
G1 X130.692 Y132.564 E0.01157
G1 X130.158 Y132.564 E0.01680
G1 X130.418 Y132.824 E0.01157
G1 X129.884 Y132.824 E0.01680
G1 X129.623 Y132.564 E0.01157
G1 X129.089 Y132.564 E0.01680
G1 X129.349 Y132.824 E0.01157
G1 X128.814 Y132.824 E0.01680
G1 X128.554 Y132.564 E0.01157
G1 X128.020 Y132.564 E0.01680
G1 X128.280 Y132.824 E0.01157
G1 X127.745 Y132.824 E0.01680
G1 X127.485 Y132.564 E0.01157
G1 X126.950 Y132.564 E0.01680
G1 X127.211 Y132.824 E0.01157
G1 X126.676 Y132.824 E0.01680
G1 X126.416 Y132.564 E0.01157
G1 X125.881 Y132.564 E0.01680
G1 X126.142 Y132.824 E0.01157
G1 X125.607 Y132.824 E0.01680
G1 X121.208 Y128.425 E0.19551
G1 X121.208 Y127.891 E0.01680
G1 X125.469 Y132.151 E0.18937
G1 X125.469 Y131.617 E0.01680
G1 X121.208 Y127.356 E0.18937
G1 X121.208 Y126.822 E0.01680
G1 X125.469 Y131.082 E0.18937
G1 X125.469 Y130.547 E0.01680
G1 X121.208 Y126.287 E0.18937
G1 X121.208 Y125.753 E0.01680
G1 X125.469 Y130.013 E0.18937
G1 X125.469 Y129.478 E0.01680
G1 X121.208 Y125.218 E0.18937
G1 X121.208 Y124.684 E0.01680
G1 X125.469 Y128.944 E0.18937
G1 X125.469 Y128.409 E0.01680
G1 X119.623 Y122.564 E0.25983
G1 X120.158 Y122.564 E0.01680
G1 X125.469 Y127.875 E0.23607
G1 X125.469 Y127.340 E0.01680
G1 X120.692 Y122.564 E0.21231
G1 X121.227 Y122.564 E0.01680
G1 X125.469 Y126.806 E0.18855
G1 X125.469 Y126.271 E0.01680
G1 X121.762 Y122.564 E0.16478
G1 X122.296 Y122.564 E0.01680
G1 X125.469 Y125.736 E0.14102
G1 X125.469 Y125.202 E0.01680
G1 X122.831 Y122.564 E0.11726
G1 X123.365 Y122.564 E0.01680
G1 X125.469 Y124.667 E0.09350
G1 X125.469 Y124.133 E0.01680
G1 X123.900 Y122.564 E0.06974
G1 X124.434 Y122.564 E0.01680
G1 X125.695 Y123.824 E0.05602
G1 X126.229 Y123.824 E0.01680
G1 X124.969 Y122.564 E0.05602
G1 X125.504 Y122.564 E0.01680
G1 X126.764 Y123.824 E0.05602
G1 X127.298 Y123.824 E0.01680
G1 X126.038 Y122.564 E0.05602
G1 X126.573 Y122.564 E0.01680
G1 X127.833 Y123.824 E0.05602
G1 X128.367 Y123.824 E0.01680
G1 X127.107 Y122.564 E0.05602
G1 X127.642 Y122.564 E0.01680
G1 X128.902 Y123.824 E0.05602
G1 X129.437 Y123.824 E0.01680
G1 X128.176 Y122.564 E0.05602
G1 X128.711 Y122.564 E0.01680
G1 X129.971 Y123.824 E0.05602
G1 X130.506 Y123.824 E0.01680
G1 X129.245 Y122.564 E0.05602
G1 X129.780 Y122.564 E0.01680
G1 X131.040 Y123.824 E0.05602
G1 X131.575 Y123.824 E0.01680
G1 X130.315 Y122.564 E0.05602
G1 X130.849 Y122.564 E0.01680
G1 X132.109 Y123.824 E0.05602
G1 X132.644 Y123.824 E0.01680
G1 X131.384 Y122.564 E0.05602
G1 X131.918 Y122.564 E0.01680
G1 X133.179 Y123.824 E0.05602
G1 X133.713 Y123.824 E0.01680
G1 X132.453 Y122.564 E0.05602
G1 X132.987 Y122.564 E0.01680
G1 X134.248 Y123.824 E0.05602
G1 X134.782 Y123.824 E0.01680
G1 X133.522 Y122.564 E0.05602
G1 X134.057 Y122.564 E0.01680
G1 X135.317 Y123.824 E0.05602
G1 X135.851 Y123.824 E0.01680
G1 X134.591 Y122.564 E0.05602
G1 X135.126 Y122.564 E0.01680
G1 X136.386 Y123.824 E0.05602
G1 X136.921 Y123.824 E0.01680
G1 X135.660 Y122.564 E0.05602
G1 X136.195 Y122.564 E0.01680
G1 X137.455 Y123.824 E0.05602
G1 X137.990 Y123.824 E0.01680
G1 X136.729 Y122.564 E0.05602
G1 X137.264 Y122.564 E0.01680
G1 X138.524 Y123.824 E0.05602
G1 X139.059 Y123.824 E0.01680
M73 Q0 S108
G1 X137.799 Y122.564 E0.05602
G1 X138.333 Y122.564 E0.01680
G1 X139.593 Y123.824 E0.05602
G1 X140.128 Y123.824 E0.01680
G1 X138.868 Y122.564 E0.05602
G1 X139.402 Y122.564 E0.01680
G1 X140.663 Y123.824 E0.05602
G1 X141.197 Y123.824 E0.01680
G1 X139.937 Y122.564 E0.05602
M73 P0 R107
G1 X140.471 Y122.564 E0.01680
G1 X141.732 Y123.824 E0.05602
G1 X142.266 Y123.824 E0.01680
G1 X141.006 Y122.564 E0.05602
G1 X141.541 Y122.564 E0.01680
G1 X142.801 Y123.824 E0.05602
G1 X143.335 Y123.824 E0.01680
G1 X142.075 Y122.564 E0.05602
G1 X142.610 Y122.564 E0.01680
G1 X143.870 Y123.824 E0.05602
G1 X144.405 Y123.824 E0.01680
G1 X143.144 Y122.564 E0.05602
G1 X143.679 Y122.564 E0.01680
G1 X144.939 Y123.824 E0.05602
G1 X145.474 Y123.824 E0.01680
G1 X144.213 Y122.564 E0.05602
G1 X144.748 Y122.564 E0.01680
G1 X146.008 Y123.824 E0.05602
G1 X146.543 Y123.824 E0.01680
G1 X145.283 Y122.564 E0.05602
G1 X145.817 Y122.564 E0.01680
G1 X147.095 Y123.842 E0.05682
G1 F8640
G1 X145.817 Y122.564 E-0.41741
G1 X145.283 Y122.564 E-0.12343
G1 X145.954 Y123.235 E-0.21916
G1 E-0.04000 F2100.00000
G1 Z0.800 F10800.000
G1 X148.039 Y126.924
G1 Z0.200
G1 E0.80000 F2100.00000
G1 F1200
G1 X151.026 Y129.911 E0.13277
G1 F8640
G1 X148.698 Y127.583 E-0.76000
G1 E-0.04000 F2100.00000
G1 Z0.800 F10800.000
G1 X150.043 Y128.393
G1 Z0.200
G1 E0.80000 F2100.00000
G1 F1200
G1 X148.208 Y126.559 E0.08155
G1 X148.208 Y126.024 E0.01680
G1 X149.061 Y126.876 E0.03788
G1 F8640
G1 X148.208 Y126.024 E-0.27825
G1 X148.208 Y126.559 E-0.12343
G1 X149.306 Y127.656 E-0.35832
G1 E-0.04000 F2100.00000
G1 Z0.800 F10800.000
G1 X125.242 Y132.994
G1 Z0.200
G1 E0.80000 F2100.00000
G1 F1200
G1 X121.208 Y128.960 E0.17929
G1 X121.208 Y129.495 E0.01680
G1 X124.538 Y132.824 E0.14799
G1 X124.003 Y132.824 E0.01680
G1 X121.208 Y130.029 E0.12423
G1 X121.208 Y130.564 E0.01680
G1 X123.469 Y132.824 E0.10047
G1 X122.934 Y132.824 E0.01680
G1 X121.208 Y131.098 E0.07670
G1 X121.208 Y131.633 E0.01680
G1 X122.400 Y132.824 E0.05294
G1 X121.865 Y132.824 E0.01680
G1 X121.208 Y132.167 E0.02918
G1 X121.208 Y132.564 E0.01245
G1 X121.070 Y132.564 E0.00435
G1 X121.330 Y132.824 E0.01157
G1 X120.796 Y132.824 E0.01680
G1 X120.536 Y132.564 E0.01157
G1 X120.001 Y132.564 E0.01680
G1 X120.261 Y132.824 E0.01157
G1 X119.727 Y132.824 E0.01680
G1 X119.466 Y132.564 E0.01157
G1 X118.932 Y132.564 E0.01680
G1 X119.192 Y132.824 E0.01157
G1 X118.658 Y132.824 E0.01680
G1 X118.397 Y132.564 E0.01157
G1 X117.863 Y132.564 E0.01680
G1 X118.123 Y132.824 E0.01157
G1 X117.588 Y132.824 E0.01680
G1 X117.328 Y132.564 E0.01157
G1 X116.794 Y132.564 E0.01680
G1 X117.054 Y132.824 E0.01157
G1 X116.519 Y132.824 E0.01680
G1 X116.259 Y132.564 E0.01157
G1 X115.724 Y132.564 E0.01680
G1 X115.985 Y132.824 E0.01157
G1 X115.450 Y132.824 E0.01680
G1 X115.190 Y132.564 E0.01157
G1 X114.655 Y132.564 E0.01680
G1 X114.916 Y132.824 E0.01157
G1 X114.381 Y132.824 E0.01680
G1 X114.121 Y132.564 E0.01157
G1 X113.586 Y132.564 E0.01680
G1 X113.846 Y132.824 E0.01157
G1 X113.312 Y132.824 E0.01680
G1 X113.052 Y132.564 E0.01157
G1 X112.517 Y132.564 E0.01680
G1 X112.777 Y132.824 E0.01157
G1 X112.243 Y132.824 E0.01680
G1 X111.983 Y132.564 E0.01157
G1 X111.448 Y132.564 E0.01680
G1 X111.708 Y132.824 E0.01157
G1 X111.174 Y132.824 E0.01680
G1 X110.913 Y132.564 E0.01157
G1 X110.379 Y132.564 E0.01680
G1 X110.639 Y132.824 E0.01157
G1 X110.105 Y132.824 E0.01680
G1 X109.844 Y132.564 E0.01157
G1 X109.310 Y132.564 E0.01680
G1 X109.570 Y132.824 E0.01157
G1 X109.035 Y132.824 E0.01680
G1 X108.775 Y132.564 E0.01157
G1 X108.241 Y132.564 E0.01680
G1 X108.501 Y132.824 E0.01157
G1 X107.966 Y132.824 E0.01680
G1 X107.706 Y132.564 E0.01157
G1 X107.171 Y132.564 E0.01680
G1 X107.432 Y132.824 E0.01157
G1 X106.897 Y132.824 E0.01680
G1 X106.637 Y132.564 E0.01157
G1 X106.102 Y132.564 E0.01680
G1 X106.363 Y132.824 E0.01157
G1 X105.828 Y132.824 E0.01680
G1 X105.568 Y132.564 E0.01157
G1 X105.033 Y132.564 E0.01680
G1 X105.293 Y132.824 E0.01157
G1 X104.759 Y132.824 E0.01680
G1 X104.499 Y132.564 E0.01157
G1 X103.964 Y132.564 E0.01680
G1 X104.224 Y132.824 E0.01157
G1 X103.690 Y132.824 E0.01680
G1 X103.429 Y132.564 E0.01157
G1 X102.895 Y132.564 E0.01680
G1 X103.155 Y132.824 E0.01157
G1 X102.621 Y132.824 E0.01680
G1 X102.360 Y132.564 E0.01157
G1 X101.826 Y132.564 E0.01680
G1 X102.086 Y132.824 E0.01157
G1 X101.551 Y132.824 E0.01680
G1 X101.291 Y132.564 E0.01157
G1 X100.757 Y132.564 E0.01680
G1 X101.017 Y132.824 E0.01157
G1 X100.482 Y132.824 E0.01680
G1 X100.222 Y132.564 E0.01157
G1 X99.687 Y132.564 E0.01680
G1 X99.948 Y132.824 E0.01157
G1 X99.413 Y132.824 E0.01680
G1 X98.983 Y132.394 E0.01911
G1 X98.638 Y132.049 F10800.000
G1 F1200
G1 X96.108 Y129.519 E0.11249
G1 X96.318 Y129.194 E0.01215
G1 X98.469 Y131.345 E0.09561
G1 X98.469 Y130.810 E0.01680
G1 X96.528 Y128.870 E0.08627
G1 X96.738 Y128.545 E0.01215
G1 X98.469 Y130.276 E0.07693
G1 X98.469 Y129.741 E0.01680
G1 X96.948 Y128.221 E0.06759
G1 X97.158 Y127.896 E0.01215
G1 X98.469 Y129.207 E0.05825
G1 X98.469 Y128.672 E0.01680
G1 X97.369 Y127.572 E0.04891
G1 X97.579 Y127.248 E0.01215
G1 X98.469 Y128.138 E0.03956
G1 X98.469 Y127.603 E0.01680
G1 X97.789 Y126.923 E0.03022
G1 X97.999 Y126.599 E0.01215
G1 X98.469 Y127.068 E0.02088
G1 X98.469 Y126.534 E0.01680
G1 X98.209 Y126.274 E0.01154
G1 X98.419 Y125.950 E0.01215
G1 X98.638 Y126.169 E0.00975
G1 F8640
G1 X98.419 Y125.950 E-0.07159
G1 X98.209 Y126.274 E-0.08925
G1 X98.469 Y126.534 E-0.08480
G1 X98.469 Y127.068 E-0.12343
G1 X97.999 Y126.599 E-0.15342
G1 X97.789 Y126.923 E-0.08925
G1 X98.243 Y127.377 E-0.14824
